; GCode generated by CraftWare

G28 X Y ; home horizontally
G28 Z ; home vertically


M104 S215 ;set head temp (no wait)
M190 S60 ;set bed temp (wait)
M109 S215 ;set head temp (wait)
; ------------------------------------
; Layer #0
; ------------------------------------
M106 S0 ;turn off fan
G21 ; mm
G90 ; abs
G92 E0 ;reset extr
G0 F600 Z0.200
;segType:Skirt
G0 F3000 E-1.00000
G0 X125.375 Y87.062 F5400
G0 F3000 E0.00000
G1 X155.875 Y87.062 E1.01443 F2400
G1 X156.250 Y87.187 E1.02758
G1 X159.750 Y90.687 E1.19221
G1 X159.938 Y91.000 E1.20434
G1 X159.938 Y109.000 E1.80303
G1 X159.813 Y109.375 E1.81617
G1 X156.313 Y112.875 E1.98080
G1 X156.000 Y113.063 E1.99293
G1 X104.000 Y113.063 E3.72246
G1 X103.687 Y113.000 E3.73307
G1 X99.937 Y109.250 E3.90946
G1 X99.937 Y91.250 E4.50814
G1 X100.000 Y90.812 E4.52285
G0 X100.062 Y90.750 F5400
G1 X103.562 Y87.250 E4.68748 F2400
G1 X103.875 Y87.062 E4.69961
G1 X125.875 Y87.062 E5.43133
G0 X104.000 Y86.687 F5400
G1 X156.000 Y86.687 E7.16086 F2400
G1 X156.563 Y87.125 E7.18457
G1 X160.313 Y90.875 E7.36096
G1 X160.313 Y108.875 E7.95965
G1 X160.250 Y109.313 E7.97435
G1 X156.250 Y113.313 E8.16250
G1 X155.875 Y113.438 E8.17565
G1 X103.875 Y113.438 E9.90518
G1 X103.850 Y113.423 E9.90615
G0 F3000 E8.90615
G0 X105.600 Y107.400 F5400
G0 X119.707 Y107.039
G0 F3000 E9.90615
;segType:HShell
G1 X105.961 Y93.293 E10.55275 F2400
G0 X105.416 Y92.780 F5400
;segType:Perimeter
G1 X105.260 Y92.200 E10.57271 F1440
G1 X154.800 Y92.200 E12.22039
G1 X154.800 Y107.800 E12.73922
G1 X105.200 Y107.800 E14.38889
G1 X105.200 Y92.260 E14.90573
G0 X105.973 Y92.467 F5400
G0 X106.300 Y92.600
;segType:Loop
G1 X154.400 Y92.600 E16.50552 F2400
G1 X154.400 Y107.400 E16.99774
G1 X105.600 Y107.400 E18.62081
G1 X105.600 Y92.600 E19.11303
G1 X106.100 Y92.600 E19.12966
G0 X105.961 Y93.859 F5400
;segType:HShell
G1 X119.141 Y107.039 E19.74965 F2400
G0 X118.576 Y107.039 F5400
G1 X105.961 Y94.424 E20.34303 F2400
G0 X105.961 Y94.990 F5400
G1 X118.010 Y107.039 E20.90980 F2400
G0 X117.444 Y107.039 F5400
G1 X105.961 Y95.556 E21.44997 F2400
G0 X105.961 Y96.121 F5400
G1 X116.879 Y107.039 E21.96352 F2400
G0 X116.313 Y107.039 F5400
G1 X105.961 Y96.687 E22.45047 F2400
G0 X105.961 Y97.253 F5400
G1 X115.747 Y107.039 E22.91081 F2400
G0 X115.182 Y107.039 F5400
G1 X105.961 Y97.818 E23.34454 F2400
G0 X105.961 Y98.384 F5400
G1 X114.616 Y107.039 E23.75166 F2400
G0 X114.050 Y107.039 F5400
G1 X105.961 Y98.950 E24.13218 F2400
G0 X105.961 Y99.515 F5400
G1 X113.485 Y107.039 E24.48609 F2400
G0 X112.919 Y107.039 F5400
G1 X105.961 Y100.081 E24.81339 F2400
G0 X105.961 Y100.647 F5400
G1 X112.353 Y107.039 E25.11408 F2400
G0 X111.788 Y107.039 F5400
G1 X105.961 Y101.213 E25.38816 F2400
G0 X105.961 Y101.778 F5400
G1 X111.222 Y107.039 E25.63563 F2400
G0 X110.656 Y107.039 F5400
G1 X105.961 Y102.344 E25.85650 F2400
G0 X105.961 Y102.910 F5400
G1 X110.090 Y107.039 E26.05076 F2400
G0 X109.525 Y107.039 F5400
G1 X105.961 Y103.475 E26.21841 F2400
G0 X105.961 Y104.041 F5400
G1 X108.959 Y107.039 E26.35945 F2400
G0 X108.393 Y107.039 F5400
G1 X105.961 Y104.607 E26.47389 F2400
G0 X105.961 Y105.172 F5400
G1 X107.828 Y107.039 E26.56171 F2400
G0 X107.262 Y107.039 F5400
G1 X105.961 Y105.738 E26.62293 F2400
G0 X105.961 Y106.304 F5400
G1 X106.696 Y107.039 E26.65754 F2400
G0 X106.131 Y107.039 F5400
G1 X105.961 Y106.869 E26.66554 F2400
G0 F3000 E25.66554
G0 X120.273 Y107.039 F5400
G0 F3000 E26.66554
G1 X106.194 Y92.961 E27.32778 F2400
G0 X106.760 Y92.961 F5400
G1 X120.838 Y107.039 E27.99000 F2400
G0 X121.404 Y107.039 F5400
G1 X107.325 Y92.961 E28.65224 F2400
G0 X107.891 Y92.961 F5400
G1 X121.970 Y107.039 E29.31447 F2400
G0 X122.536 Y107.039 F5400
G1 X108.457 Y92.961 E29.97670 F2400
G0 X109.022 Y92.961 F5400
G1 X123.101 Y107.039 E30.63893 F2400
G0 X123.667 Y107.039 F5400
G1 X109.588 Y92.961 E31.30116 F2400
G0 X110.154 Y92.961 F5400
G1 X124.233 Y107.039 E31.96339 F2400
G0 X124.798 Y107.039 F5400
G1 X110.719 Y92.961 E32.62562 F2400
G0 X111.285 Y92.961 F5400
G1 X125.364 Y107.039 E33.28785 F2400
G0 X125.930 Y107.039 F5400
G1 X111.851 Y92.961 E33.95008 F2400
G0 X112.416 Y92.961 F5400
G1 X126.495 Y107.039 E34.61231 F2400
G0 X127.061 Y107.039 F5400
G1 X112.982 Y92.961 E35.27454 F2400
G0 X113.548 Y92.961 F5400
G1 X127.627 Y107.039 E35.93677 F2400
G0 X128.192 Y107.039 F5400
G1 X114.113 Y92.961 E36.59900 F2400
G0 X114.679 Y92.961 F5400
G1 X128.758 Y107.039 E37.26124 F2400
G0 X129.324 Y107.039 F5400
G1 X115.245 Y92.961 E37.92347 F2400
G0 X115.810 Y92.961 F5400
G1 X129.889 Y107.039 E38.58570 F2400
G0 X130.455 Y107.039 F5400
G1 X116.376 Y92.961 E39.24793 F2400
G0 X116.942 Y92.961 F5400
G1 X131.021 Y107.039 E39.91016 F2400
G0 X131.586 Y107.039 F5400
G1 X117.508 Y92.961 E40.57239 F2400
G0 X118.073 Y92.961 F5400
G1 X132.152 Y107.039 E41.23462 F2400
G0 X132.718 Y107.039 F5400
G1 X118.639 Y92.961 E41.89686 F2400
G0 X119.205 Y92.961 F5400
G1 X133.284 Y107.039 E42.55909 F2400
G0 X133.849 Y107.039 F5400
G1 X119.770 Y92.961 E43.22132 F2400
G0 X120.336 Y92.961 F5400
G1 X134.415 Y107.039 E43.88355 F2400
G0 X134.981 Y107.039 F5400
G1 X120.902 Y92.961 E44.54578 F2400
G0 X121.467 Y92.961 F5400
G1 X135.546 Y107.039 E45.20801 F2400
G0 X136.112 Y107.039 F5400
G1 X122.033 Y92.961 E45.87025 F2400
G0 X122.599 Y92.961 F5400
G1 X136.678 Y107.039 E46.53248 F2400
G0 X137.243 Y107.039 F5400
G1 X123.164 Y92.961 E47.19471 F2400
G0 X123.730 Y92.961 F5400
G1 X137.809 Y107.039 E47.85694 F2400
G0 X138.375 Y107.039 F5400
G1 X124.296 Y92.961 E48.51917 F2400
G0 X124.861 Y92.961 F5400
G1 X138.940 Y107.039 E49.18140 F2400
G0 X139.506 Y107.039 F5400
G1 X125.427 Y92.961 E49.84363 F2400
G0 X125.993 Y92.961 F5400
G1 X140.072 Y107.039 E50.50587 F2400
G0 X140.637 Y107.039 F5400
G1 X126.559 Y92.961 E51.16810 F2400
G0 X127.124 Y92.961 F5400
G1 X141.203 Y107.039 E51.83033 F2400
G0 X141.769 Y107.039 F5400
G1 X127.690 Y92.961 E52.49256 F2400
G0 X128.256 Y92.961 F5400
G1 X142.335 Y107.039 E53.15479 F2400
G0 X142.900 Y107.039 F5400
G1 X128.821 Y92.961 E53.81702 F2400
G0 X129.387 Y92.961 F5400
G1 X143.466 Y107.039 E54.47925 F2400
G0 X144.032 Y107.039 F5400
G1 X129.953 Y92.961 E55.14148 F2400
G0 X130.518 Y92.961 F5400
G1 X144.597 Y107.039 E55.80371 F2400
G0 X145.163 Y107.039 F5400
G1 X131.084 Y92.961 E56.46594 F2400
G0 X131.650 Y92.961 F5400
G1 X145.729 Y107.039 E57.12818 F2400
G0 X146.294 Y107.039 F5400
G1 X132.215 Y92.961 E57.79041 F2400
G0 X132.781 Y92.961 F5400
G1 X146.860 Y107.039 E58.45264 F2400
G0 X147.426 Y107.039 F5400
G1 X133.347 Y92.961 E59.11487 F2400
G0 X133.912 Y92.961 F5400
G1 X147.991 Y107.039 E59.77710 F2400
G0 X148.557 Y107.039 F5400
G1 X134.478 Y92.961 E60.43933 F2400
G0 X135.044 Y92.961 F5400
G1 X149.123 Y107.039 E61.10156 F2400
G0 X149.688 Y107.039 F5400
G1 X135.609 Y92.961 E61.76380 F2400
G0 X136.175 Y92.961 F5400
G1 X150.254 Y107.039 E62.42603 F2400
G0 X150.820 Y107.039 F5400
G1 X136.741 Y92.961 E63.08826 F2400
G0 X137.307 Y92.961 F5400
G1 X151.385 Y107.039 E63.75049 F2400
G0 X151.951 Y107.039 F5400
G1 X137.872 Y92.961 E64.41272 F2400
G0 X138.438 Y92.961 F5400
G1 X152.517 Y107.039 E65.07495 F2400
G0 X153.083 Y107.039 F5400
G1 X139.004 Y92.961 E65.73719 F2400
G0 X139.569 Y92.961 F5400
G1 X153.648 Y107.039 E66.39942 F2400
G0 X154.039 Y106.865 F5400
G1 X140.135 Y92.961 E67.05344 F2400
G0 X140.701 Y92.961 F5400
G1 X154.039 Y106.299 E67.68086 F2400
G0 X154.039 Y105.734 F5400
G1 X141.266 Y92.961 E68.28166 F2400
G0 X141.832 Y92.961 F5400
G1 X154.039 Y105.168 E68.85587 F2400
G0 X154.039 Y104.602 F5400
G1 X142.398 Y92.961 E69.40346 F2400
G0 X142.963 Y92.961 F5400
G1 X154.039 Y104.037 E69.92445 F2400
G0 X154.039 Y103.471 F5400
G1 X143.529 Y92.961 E70.41883 F2400
G0 X144.095 Y92.961 F5400
G1 X154.039 Y102.905 E70.88659 F2400
G0 X154.039 Y102.340 F5400
G1 X144.660 Y92.961 E71.32775 F2400
G0 X145.226 Y92.961 F5400
G1 X154.039 Y101.774 E71.74230 F2400
G0 X154.039 Y101.208 F5400
G1 X145.792 Y92.961 E72.13025 F2400
G0 X146.357 Y92.961 F5400
G1 X154.039 Y100.643 E72.49159 F2400
G0 X154.039 Y100.077 F5400
G1 X146.923 Y92.961 E72.82632 F2400
G0 X147.489 Y92.961 F5400
G1 X154.039 Y99.511 E73.13444 F2400
G0 X154.039 Y98.945 F5400
G1 X148.055 Y92.961 E73.41595 F2400
G0 X148.620 Y92.961 F5400
G1 X154.039 Y98.380 E73.67086 F2400
G0 X154.039 Y97.814 F5400
G1 X149.186 Y92.961 E73.89915 F2400
G0 X149.752 Y92.961 F5400
G1 X154.039 Y97.248 E74.10084 F2400
G0 X154.039 Y96.683 F5400
G1 X150.317 Y92.961 E74.27592 F2400
G0 X150.883 Y92.961 F5400
G1 X154.039 Y96.117 E74.42440 F2400
G0 X154.039 Y95.551 F5400
G1 X151.449 Y92.961 E74.54626 F2400
G0 X152.014 Y92.961 F5400
G1 X154.039 Y94.986 E74.64151 F2400
G0 X154.039 Y94.420 F5400
G1 X152.580 Y92.961 E74.71016 F2400
G0 X153.146 Y92.961 F5400
G1 X154.039 Y93.854 E74.75220 F2400
G0 X154.039 Y93.289 F5400
G1 X153.711 Y92.961 E74.76763 F2400
; ------------------------------------
; Layer #1
; ------------------------------------
G92 E0 ;reset extr
G0 F3000 E-1.00000
G0 F600 Z0.400
G0 X108.594 Y92.961 F7200
G0 F3000 E0.00000
;segType:HShell
G1 X105.961 Y95.594 E0.12389 F3600
G0 X105.961 Y95.029 F7200
G1 X108.029 Y92.961 E0.22117 F3600
G0 X107.463 Y92.961 F7200
G1 X105.961 Y94.463 E0.29184 F3600
G0 X105.961 Y93.897 F7200
G1 X106.897 Y92.961 E0.33591 F3600
G0 X105.961 Y93.332 F7200
G1 X106.332 Y92.961 E0.35336 F3600
G0 X105.416 Y92.780 F7200
;segType:Perimeter
G1 X105.260 Y92.200 E0.37332 F2160
G1 X154.800 Y92.200 E2.02100
G1 X154.800 Y107.800 E2.53983
G1 X105.200 Y107.800 E4.18951
G1 X105.200 Y92.260 E4.70634
G0 X105.973 Y92.467 F7200
G0 X106.300 Y92.600
;segType:Loop
G1 X154.400 Y92.600 E6.30613 F3600
G1 X154.400 Y107.400 E6.79835
G1 X105.600 Y107.400 E8.42142
G1 X105.600 Y92.600 E8.91364
G1 X106.100 Y92.600 E8.93027
G0 F3000 E7.93027
G0 X105.961 Y96.160 F7200
G0 F3000 E8.93027
;segType:HShell
G1 X109.160 Y92.961 E9.08077 F3600
G0 X109.726 Y92.961 F7200
G1 X105.961 Y96.726 E9.25787 F3600
G0 X105.961 Y97.291 F7200
G1 X110.291 Y92.961 E9.46159 F3600
G0 X110.857 Y92.961 F7200
G1 X105.961 Y97.857 E9.69191 F3600
G0 X105.961 Y98.423 F7200
G1 X111.423 Y92.961 E9.94884 F3600
G0 X111.989 Y92.961 F7200
G1 X105.961 Y98.989 E10.23237 F3600
G0 X105.961 Y99.554 F7200
G1 X112.554 Y92.961 E10.54252 F3600
G0 X113.120 Y92.961 F7200
G1 X105.961 Y100.120 E10.87927 F3600
G0 X105.961 Y100.686 F7200
G1 X113.686 Y92.961 E11.24264 F3600
G0 X114.251 Y92.961 F7200
G1 X105.961 Y101.251 E11.63261 F3600
G0 X105.961 Y101.817 F7200
G1 X114.817 Y92.961 E12.04918 F3600
G0 X115.383 Y92.961 F7200
G1 X105.961 Y102.383 E12.49237 F3600
G0 X105.961 Y102.948 F7200
G1 X115.948 Y92.961 E12.96216 F3600
G0 X116.514 Y92.961 F7200
G1 X105.961 Y103.514 E13.45857 F3600
G0 X105.961 Y104.080 F7200
G1 X117.080 Y92.961 E13.98158 F3600
G0 X117.645 Y92.961 F7200
G1 X105.961 Y104.645 E14.53119 F3600
G0 X105.961 Y105.211 F7200
G1 X118.211 Y92.961 E15.10742 F3600
G0 X118.777 Y92.961 F7200
G1 X105.961 Y105.777 E15.71026 F3600
G0 X105.961 Y106.342 F7200
G1 X119.342 Y92.961 E16.33970 F3600
G0 X119.908 Y92.961 F7200
G1 X105.961 Y106.908 E16.99575 F3600
G0 X106.395 Y107.039 F7200
G1 X120.474 Y92.961 E17.65798 F3600
G0 X121.039 Y92.961 F7200
G1 X106.961 Y107.039 E18.32021 F3600
G0 X107.526 Y107.039 F7200
G1 X121.605 Y92.961 E18.98244 F3600
G0 X122.171 Y92.961 F7200
G1 X108.092 Y107.039 E19.64467 F3600
G0 X108.658 Y107.039 F7200
G1 X122.737 Y92.961 E20.30690 F3600
G0 X123.302 Y92.961 F7200
G1 X109.223 Y107.039 E20.96913 F3600
G0 X109.789 Y107.039 F7200
G1 X123.868 Y92.961 E21.63136 F3600
G0 X124.434 Y92.961 F7200
G1 X110.355 Y107.039 E22.29359 F3600
G0 X110.920 Y107.039 F7200
G1 X124.999 Y92.961 E22.95582 F3600
G0 X125.565 Y92.961 F7200
G1 X111.486 Y107.039 E23.61805 F3600
G0 X112.052 Y107.039 F7200
G1 X126.131 Y92.961 E24.28027 F3600
G0 X126.696 Y92.961 F7200
G1 X112.617 Y107.039 E24.94250 F3600
G0 X113.183 Y107.039 F7200
G1 X127.262 Y92.961 E25.60473 F3600
G0 X127.828 Y92.961 F7200
G1 X113.749 Y107.039 E26.26696 F3600
G0 X114.314 Y107.039 F7200
G1 X128.393 Y92.961 E26.92919 F3600
G0 X128.959 Y92.961 F7200
G1 X114.880 Y107.039 E27.59142 F3600
G0 X115.446 Y107.039 F7200
G1 X129.525 Y92.961 E28.25365 F3600
G0 X130.090 Y92.961 F7200
G1 X116.011 Y107.039 E28.91588 F3600
G0 X116.577 Y107.039 F7200
G1 X130.656 Y92.961 E29.57811 F3600
G0 X131.222 Y92.961 F7200
G1 X117.143 Y107.039 E30.24034 F3600
G0 X117.709 Y107.039 F7200
G1 X131.787 Y92.961 E30.90257 F3600
G0 X132.353 Y92.961 F7200
G1 X118.274 Y107.039 E31.56480 F3600
G0 X118.840 Y107.039 F7200
G1 X132.919 Y92.961 E32.22703 F3600
G0 X133.485 Y92.961 F7200
G1 X119.406 Y107.039 E32.88926 F3600
G0 X119.971 Y107.039 F7200
G1 X134.050 Y92.961 E33.55149 F3600
G0 X134.616 Y92.961 F7200
G1 X120.537 Y107.039 E34.21372 F3600
G0 X121.103 Y107.039 F7200
G1 X135.182 Y92.961 E34.87595 F3600
G0 X135.747 Y92.961 F7200
G1 X121.668 Y107.039 E35.53819 F3600
G0 X122.234 Y107.039 F7200
G1 X136.313 Y92.961 E36.20042 F3600
G0 X136.879 Y92.961 F7200
G1 X122.800 Y107.039 E36.86265 F3600
G0 X123.365 Y107.039 F7200
G1 X137.444 Y92.961 E37.52488 F3600
G0 X138.010 Y92.961 F7200
G1 X123.931 Y107.039 E38.18711 F3600
G0 X124.497 Y107.039 F7200
G1 X138.576 Y92.961 E38.84934 F3600
G0 X139.141 Y92.961 F7200
G1 X125.062 Y107.039 E39.51158 F3600
G0 X125.628 Y107.039 F7200
G1 X139.707 Y92.961 E40.17381 F3600
G0 X140.273 Y92.961 F7200
G1 X126.194 Y107.039 E40.83604 F3600
G0 X126.760 Y107.039 F7200
G1 X140.838 Y92.961 E41.49827 F3600
G0 X141.404 Y92.961 F7200
G1 X127.325 Y107.039 E42.16050 F3600
G0 X127.891 Y107.039 F7200
G1 X141.970 Y92.961 E42.82273 F3600
G0 X142.536 Y92.961 F7200
G1 X128.457 Y107.039 E43.48496 F3600
G0 X129.022 Y107.039 F7200
G1 X143.101 Y92.961 E44.14720 F3600
G0 X143.667 Y92.961 F7200
G1 X129.588 Y107.039 E44.80943 F3600
G0 X130.154 Y107.039 F7200
G1 X144.233 Y92.961 E45.47166 F3600
G0 X144.798 Y92.961 F7200
G1 X130.719 Y107.039 E46.13389 F3600
G0 X131.285 Y107.039 F7200
G1 X145.364 Y92.961 E46.79612 F3600
G0 X145.930 Y92.961 F7200
G1 X131.851 Y107.039 E47.45835 F3600
G0 X132.416 Y107.039 F7200
G1 X146.495 Y92.961 E48.12059 F3600
G0 X147.061 Y92.961 F7200
G1 X132.982 Y107.039 E48.78282 F3600
G0 X133.548 Y107.039 F7200
G1 X147.627 Y92.961 E49.44505 F3600
G0 X148.192 Y92.961 F7200
G1 X134.113 Y107.039 E50.10728 F3600
G0 X134.679 Y107.039 F7200
G1 X148.758 Y92.961 E50.76951 F3600
G0 X149.324 Y92.961 F7200
G1 X135.245 Y107.039 E51.43174 F3600
G0 X135.810 Y107.039 F7200
G1 X149.889 Y92.961 E52.09397 F3600
G0 X150.455 Y92.961 F7200
G1 X136.376 Y107.039 E52.75621 F3600
G0 X136.942 Y107.039 F7200
G1 X151.021 Y92.961 E53.41844 F3600
G0 X151.587 Y92.961 F7200
G1 X137.508 Y107.039 E54.08067 F3600
G0 X138.073 Y107.039 F7200
G1 X152.152 Y92.961 E54.74290 F3600
G0 X152.718 Y92.961 F7200
G1 X138.639 Y107.039 E55.40513 F3600
G0 X139.205 Y107.039 F7200
G1 X153.284 Y92.961 E56.06736 F3600
G0 X153.849 Y92.960 F7200
G1 X139.770 Y107.039 E56.72959 F3600
G0 X140.336 Y107.039 F7200
G1 X154.039 Y93.336 E57.37416 F3600
G0 X154.039 Y93.902 F7200
G1 X140.902 Y107.039 E57.99213 F3600
G0 X141.467 Y107.039 F7200
G1 X154.039 Y94.467 E58.58348 F3600
G0 X154.039 Y95.033 F7200
G1 X142.033 Y107.039 E59.14823 F3600
G0 X142.599 Y107.039 F7200
G1 X154.039 Y95.599 E59.68637 F3600
G0 X154.039 Y96.164 F7200
G1 X143.164 Y107.039 E60.19790 F3600
G0 X143.730 Y107.039 F7200
G1 X154.039 Y96.730 E60.68282 F3600
G0 X154.039 Y97.296 F7200
G1 X144.296 Y107.039 E61.14113 F3600
G0 X144.861 Y107.039 F7200
G1 X154.039 Y97.861 E61.57284 F3600
G0 X154.039 Y98.427 F7200
G1 X145.427 Y107.039 E61.97793 F3600
G0 X145.993 Y107.039 F7200
G1 X154.039 Y98.993 E62.35642 F3600
G0 X154.039 Y99.559 F7200
G1 X146.558 Y107.039 E62.70831 F3600
G0 X147.124 Y107.039 F7200
G1 X154.039 Y100.124 E63.03358 F3600
G0 X154.039 Y100.690 F7200
G1 X147.690 Y107.039 E63.33225 F3600
G0 X148.256 Y107.039 F7200
G1 X154.039 Y101.256 E63.60430 F3600
G0 X154.039 Y101.821 F7200
G1 X148.821 Y107.039 E63.84975 F3600
G0 X149.387 Y107.039 F7200
G1 X154.039 Y102.387 E64.06859 F3600
G0 X154.039 Y102.953 F7200
G1 X149.953 Y107.039 E64.26082 F3600
G0 X150.518 Y107.039 F7200
G1 X154.039 Y103.518 E64.42645 F3600
G0 X154.039 Y104.084 F7200
G1 X151.084 Y107.039 E64.56546 F3600
G0 X151.650 Y107.039 F7200
G1 X154.039 Y104.650 E64.67787 F3600
G0 X154.039 Y105.215 F7200
G1 X152.215 Y107.039 E64.76367 F3600
G0 X152.781 Y107.039 F7200
G1 X154.039 Y105.781 E64.82286 F3600
G0 X154.039 Y106.347 F7200
G1 X153.347 Y107.039 E64.85545 F3600
G0 X153.912 Y107.039 F7200
G1 X154.039 Y106.912 E64.86142 F3600
; ------------------------------------
; Layer #2
; ------------------------------------
G92 E0 ;reset extr
G0 F3000 E-1.00000
G0 F600 Z0.600
G0 X119.707 Y107.039 F7200
G0 F3000 E0.00000
;segType:HShell
G1 X105.961 Y93.293 E0.64660 F3600
G0 X105.416 Y92.780 F7200
;segType:Perimeter
G1 X105.260 Y92.200 E0.66655 F2160
G1 X154.800 Y92.200 E2.31423
G1 X154.800 Y107.800 E2.83306
G1 X105.200 Y107.800 E4.48274
G1 X105.200 Y92.260 E4.99958
G0 X105.973 Y92.467 F7200
G0 X106.300 Y92.600
;segType:Loop
G1 X154.400 Y92.600 E6.59936 F3600
G1 X154.400 Y107.400 E7.09159
G1 X105.600 Y107.400 E8.71465
G1 X105.600 Y92.600 E9.20688
G1 X106.100 Y92.600 E9.22351
G0 X106.194 Y92.961 F7200
;segType:HShell
G1 X120.273 Y107.039 E9.88574 F3600
G0 X120.838 Y107.039 F7200
G1 X106.760 Y92.961 E10.54797 F3600
G0 X107.325 Y92.961 F7200
G1 X121.404 Y107.039 E11.21020 F3600
G0 X121.970 Y107.039 F7200
G1 X107.891 Y92.961 E11.87243 F3600
G0 X108.457 Y92.961 F7200
G1 X122.536 Y107.039 E12.53466 F3600
G0 X123.101 Y107.039 F7200
G1 X109.022 Y92.961 E13.19689 F3600
G0 X109.588 Y92.961 F7200
G1 X123.667 Y107.039 E13.85913 F3600
G0 X124.233 Y107.039 F7200
G1 X110.154 Y92.961 E14.52136 F3600
G0 X110.719 Y92.961 F7200
G1 X124.798 Y107.039 E15.18359 F3600
G0 X125.364 Y107.039 F7200
G1 X111.285 Y92.961 E15.84582 F3600
G0 X111.851 Y92.961 F7200
G1 X125.930 Y107.039 E16.50805 F3600
G0 X126.495 Y107.039 F7200
G1 X112.416 Y92.961 E17.17028 F3600
G0 X112.982 Y92.961 F7200
G1 X127.061 Y107.039 E17.83251 F3600
G0 X127.627 Y107.039 F7200
G1 X113.548 Y92.961 E18.49475 F3600
G0 X114.113 Y92.961 F7200
G1 X128.192 Y107.039 E19.15698 F3600
G0 X128.758 Y107.039 F7200
G1 X114.679 Y92.961 E19.81921 F3600
G0 X115.245 Y92.961 F7200
G1 X129.324 Y107.039 E20.48144 F3600
G0 X129.889 Y107.039 F7200
G1 X115.810 Y92.961 E21.14367 F3600
G0 X116.376 Y92.961 F7200
G1 X130.455 Y107.039 E21.80590 F3600
G0 X131.021 Y107.039 F7200
G1 X116.942 Y92.961 E22.46814 F3600
G0 X117.508 Y92.961 F7200
G1 X131.587 Y107.039 E23.13037 F3600
G0 X132.152 Y107.039 F7200
G1 X118.073 Y92.961 E23.79260 F3600
G0 X118.639 Y92.961 F7200
G1 X132.718 Y107.039 E24.45483 F3600
G0 X133.284 Y107.039 F7200
G1 X119.205 Y92.961 E25.11706 F3600
G0 X119.770 Y92.961 F7200
G1 X133.849 Y107.039 E25.77929 F3600
G0 X134.415 Y107.039 F7200
G1 X120.336 Y92.961 E26.44152 F3600
G0 X120.902 Y92.961 F7200
G1 X134.981 Y107.039 E27.10376 F3600
G0 X135.546 Y107.039 F7200
G1 X121.467 Y92.961 E27.76599 F3600
G0 X122.033 Y92.961 F7200
G1 X136.112 Y107.039 E28.42822 F3600
G0 X136.678 Y107.039 F7200
G1 X122.599 Y92.961 E29.09045 F3600
G0 X123.164 Y92.961 F7200
G1 X137.243 Y107.039 E29.75268 F3600
G0 X137.809 Y107.039 F7200
G1 X123.730 Y92.961 E30.41491 F3600
G0 X124.296 Y92.961 F7200
G1 X138.375 Y107.039 E31.07714 F3600
G0 X138.940 Y107.039 F7200
G1 X124.861 Y92.961 E31.73938 F3600
G0 X125.427 Y92.961 F7200
G1 X139.506 Y107.039 E32.40160 F3600
G0 X140.072 Y107.039 F7200
G1 X125.993 Y92.961 E33.06384 F3600
G0 X126.559 Y92.961 F7200
G1 X140.637 Y107.039 E33.72607 F3600
G0 X141.203 Y107.039 F7200
G1 X127.124 Y92.961 E34.38830 F3600
G0 X127.690 Y92.961 F7200
G1 X141.769 Y107.039 E35.05053 F3600
G0 X142.335 Y107.039 F7200
G1 X128.256 Y92.961 E35.71276 F3600
G0 X128.821 Y92.961 F7200
G1 X142.900 Y107.039 E36.37499 F3600
G0 X143.466 Y107.039 F7200
G1 X129.387 Y92.961 E37.03723 F3600
G0 X129.953 Y92.961 F7200
G1 X144.032 Y107.039 E37.69946 F3600
G0 X144.597 Y107.039 F7200
G1 X130.518 Y92.961 E38.36169 F3600
G0 X131.084 Y92.961 F7200
G1 X145.163 Y107.039 E39.02392 F3600
G0 X145.729 Y107.039 F7200
G1 X131.650 Y92.961 E39.68615 F3600
G0 X132.215 Y92.961 F7200
G1 X146.294 Y107.039 E40.34838 F3600
G0 X146.860 Y107.039 F7200
G1 X132.781 Y92.961 E41.01061 F3600
G0 X133.347 Y92.961 F7200
G1 X147.426 Y107.039 E41.67285 F3600
G0 X147.991 Y107.039 F7200
G1 X133.912 Y92.961 E42.33508 F3600
G0 X134.478 Y92.961 F7200
G1 X148.557 Y107.039 E42.99731 F3600
G0 X149.123 Y107.039 F7200
G1 X135.044 Y92.961 E43.65954 F3600
G0 X135.609 Y92.961 F7200
G1 X149.688 Y107.039 E44.32177 F3600
G0 X150.254 Y107.039 F7200
G1 X136.175 Y92.961 E44.98400 F3600
G0 X136.741 Y92.961 F7200
G1 X150.820 Y107.039 E45.64624 F3600
G0 X151.385 Y107.039 F7200
G1 X137.307 Y92.961 E46.30847 F3600
G0 X137.872 Y92.961 F7200
G1 X151.951 Y107.039 E46.97070 F3600
G0 X152.517 Y107.039 F7200
G1 X138.438 Y92.961 E47.63293 F3600
G0 X139.004 Y92.961 F7200
G1 X153.083 Y107.039 E48.29516 F3600
G0 X153.648 Y107.039 F7200
G1 X139.569 Y92.961 E48.95739 F3600
G0 X140.135 Y92.961 F7200
G1 X154.039 Y106.865 E49.61142 F3600
G0 X154.039 Y106.299 F7200
G1 X140.701 Y92.961 E50.23883 F3600
G0 X141.266 Y92.961 F7200
G1 X154.039 Y105.734 E50.83964 F3600
G0 X154.039 Y105.168 F7200
G1 X141.832 Y92.961 E51.41384 F3600
G0 X142.398 Y92.961 F7200
G1 X154.039 Y104.602 E51.96143 F3600
G0 X154.039 Y104.037 F7200
G1 X142.963 Y92.961 E52.48242 F3600
G0 X143.529 Y92.961 F7200
G1 X154.039 Y103.471 E52.97679 F3600
G0 X154.039 Y102.905 F7200
G1 X144.095 Y92.961 E53.44456 F3600
G0 X144.660 Y92.961 F7200
G1 X154.039 Y102.340 E53.88572 F3600
G0 X154.039 Y101.774 F7200
G1 X145.226 Y92.961 E54.30027 F3600
G0 X145.792 Y92.961 F7200
G1 X154.039 Y101.208 E54.68822 F3600
G0 X154.039 Y100.642 F7200
G1 X146.358 Y92.961 E55.04955 F3600
G0 X146.923 Y92.961 F7200
G1 X154.039 Y100.077 E55.38428 F3600
G0 X154.039 Y99.511 F7200
G1 X147.489 Y92.961 E55.69240 F3600
G0 X148.055 Y92.961 F7200
G1 X154.039 Y98.945 E55.97391 F3600
G0 X154.039 Y98.380 F7200
G1 X148.620 Y92.961 E56.22881 F3600
G0 X149.186 Y92.961 F7200
G1 X154.039 Y97.814 E56.45711 F3600
G0 X154.039 Y97.248 F7200
G1 X149.752 Y92.961 E56.65879 F3600
G0 X150.317 Y92.961 F7200
G1 X154.039 Y96.683 E56.83387 F3600
G0 X154.039 Y96.117 F7200
G1 X150.883 Y92.961 E56.98234 F3600
G0 X151.449 Y92.961 F7200
G1 X154.039 Y95.551 E57.10421 F3600
G0 X154.039 Y94.986 F7200
G1 X152.014 Y92.961 E57.19946 F3600
G0 X152.580 Y92.961 F7200
G1 X154.039 Y94.420 E57.26811 F3600
G0 X154.039 Y93.854 F7200
G1 X153.146 Y92.961 E57.31015 F3600
G0 X153.711 Y92.961 F7200
G1 X154.039 Y93.289 E57.32558 F3600
G0 X119.141 Y107.039 F7200
G1 X105.961 Y93.859 E57.94556 F3600
G0 X105.961 Y94.424 F7200
G1 X118.576 Y107.039 E58.53894 F3600
G0 X118.010 Y107.039 F7200
G1 X105.961 Y94.990 E59.10572 F3600
G0 X105.961 Y95.556 F7200
G1 X117.444 Y107.039 E59.64588 F3600
G0 X116.879 Y107.039 F7200
G1 X105.961 Y96.121 E60.15944 F3600
G0 X105.961 Y96.687 F7200
G1 X116.313 Y107.039 E60.64639 F3600
G0 X115.747 Y107.039 F7200
G1 X105.961 Y97.253 E61.10673 F3600
G0 X105.961 Y97.818 F7200
G1 X115.182 Y107.039 E61.54046 F3600
G0 X114.616 Y107.039 F7200
G1 X105.961 Y98.384 E61.94758 F3600
G0 X105.961 Y98.950 F7200
G1 X114.050 Y107.039 E62.32810 F3600
G0 X113.485 Y107.039 F7200
G1 X105.961 Y99.515 E62.68201 F3600
G0 X105.961 Y100.081 F7200
G1 X112.919 Y107.039 E63.00931 F3600
G0 X112.353 Y107.039 F7200
G1 X105.961 Y100.647 E63.31000 F3600
G0 X105.961 Y101.213 F7200
G1 X111.788 Y107.039 E63.58408 F3600
G0 X111.222 Y107.039 F7200
G1 X105.961 Y101.778 E63.83155 F3600
G0 X105.961 Y102.344 F7200
G1 X110.656 Y107.039 E64.05242 F3600
G0 X110.090 Y107.039 F7200
G1 X105.961 Y102.910 E64.24668 F3600
G0 X105.961 Y103.475 F7200
G1 X109.525 Y107.039 E64.41432 F3600
G0 X108.959 Y107.039 F7200
G1 X105.961 Y104.041 E64.55537 F3600
G0 X105.961 Y104.607 F7200
G1 X108.393 Y107.039 E64.66980 F3600
G0 X107.828 Y107.039 F7200
G1 X105.961 Y105.172 E64.75763 F3600
G0 X105.961 Y105.738 F7200
G1 X107.262 Y107.039 E64.81885 F3600
G0 X106.696 Y107.039 F7200
G1 X105.961 Y106.304 E64.85346 F3600
G0 X105.961 Y106.869 F7200
G1 X106.131 Y107.039 E64.86146 F3600
; ------------------------------------
; Layer #3
; ------------------------------------
M106 S255 ;set fan speed
G92 E0 ;reset extr
G0 F3000 E-1.00000
G0 F600 Z0.800
G0 X106.068 Y107.400 F7200
G0 X108.657 Y92.600
G0 X108.594 Y92.961
G0 F3000 E0.00000
;segType:HShell
G1 X105.961 Y95.594 E0.12389 F3600
G0 X105.961 Y95.029 F7200
G1 X108.029 Y92.961 E0.22117 F3600
G0 X107.463 Y92.961 F7200
G1 X105.961 Y94.463 E0.29184 F3600
G0 X105.961 Y93.897 F7200
G1 X106.897 Y92.961 E0.33590 F3600
G0 X106.332 Y92.961 F7200
G1 X105.961 Y93.332 E0.35335 F3600
G0 X105.600 Y92.600 F7200
G0 X105.416 Y92.780
;segType:Perimeter
G1 X105.260 Y92.200 E0.37331 F2160
G1 X154.800 Y92.200 E2.02099
G1 X154.800 Y107.800 E2.53982
G1 X105.200 Y107.800 E4.18950
G1 X105.200 Y92.260 E4.70633
G0 X105.973 Y92.467 F7200
G0 X106.300 Y92.600
;segType:Loop
G1 X154.400 Y92.600 E6.30612 F3600
G1 X154.400 Y107.400 E6.79834
G1 X105.600 Y107.400 E8.42141
G1 X105.600 Y92.600 E8.91363
G1 X106.100 Y92.600 E8.93026
G0 F3000 E7.93026
G0 X153.912 Y107.039 F7200
G0 F3000 E8.93026
;segType:HShell
G1 X154.039 Y106.912 E8.93624 F3600
G0 X154.039 Y106.347 F7200
G1 X153.347 Y107.039 E8.96883 F3600
G0 X152.781 Y107.039 F7200
G1 X154.039 Y105.781 E9.02802 F3600
G0 X154.039 Y105.215 F7200
G1 X152.215 Y107.039 E9.11382 F3600
G0 X151.650 Y107.039 F7200
G1 X154.039 Y104.650 E9.22623 F3600
G0 X154.039 Y104.084 F7200
G1 X151.084 Y107.039 E9.36525 F3600
G0 X150.518 Y107.039 F7200
G1 X154.039 Y103.518 E9.53087 F3600
G0 X154.039 Y102.953 F7200
G1 X149.953 Y107.039 E9.72311 F3600
G0 X149.387 Y107.039 F7200
G1 X154.039 Y102.387 E9.94195 F3600
G0 X154.039 Y101.821 F7200
G1 X148.821 Y107.039 E10.18740 F3600
G0 X148.256 Y107.039 F7200
G1 X154.039 Y101.256 E10.45946 F3600
G0 X154.039 Y100.690 F7200
G1 X147.690 Y107.039 E10.75813 F3600
G0 X147.124 Y107.039 F7200
G1 X154.039 Y100.124 E11.08341 F3600
G0 X154.039 Y99.558 F7200
G1 X146.558 Y107.039 E11.43529 F3600
G0 X145.993 Y107.039 F7200
G1 X154.039 Y98.993 E11.81378 F3600
G0 X154.039 Y98.427 F7200
G1 X145.427 Y107.039 E12.21888 F3600
G0 X144.861 Y107.039 F7200
G1 X154.039 Y97.861 E12.65059 F3600
G0 X154.039 Y97.296 F7200
G1 X144.296 Y107.039 E13.10890 F3600
G0 X143.730 Y107.039 F7200
G1 X154.039 Y96.730 E13.59383 F3600
G0 X154.039 Y96.164 F7200
G1 X143.164 Y107.039 E14.10536 F3600
G0 X142.599 Y107.039 F7200
G1 X154.039 Y95.599 E14.64350 F3600
G0 X154.039 Y95.033 F7200
G1 X142.033 Y107.039 E15.20825 F3600
G0 X141.467 Y107.039 F7200
G1 X154.039 Y94.467 E15.79961 F3600
G0 X154.039 Y93.902 F7200
G1 X140.902 Y107.039 E16.41757 F3600
G0 X140.336 Y107.039 F7200
G1 X154.039 Y93.336 E17.06215 F3600
G0 X153.849 Y92.961 F7200
G1 X139.770 Y107.039 E17.72438 F3600
G0 X139.205 Y107.039 F7200
G1 X153.284 Y92.961 E18.38661 F3600
G0 X152.718 Y92.961 F7200
G1 X138.639 Y107.039 E19.04884 F3600
G0 X138.073 Y107.039 F7200
G1 X152.152 Y92.961 E19.71107 F3600
G0 X151.586 Y92.961 F7200
G1 X137.508 Y107.039 E20.37330 F3600
G0 X136.942 Y107.039 F7200
G1 X151.021 Y92.961 E21.03554 F3600
G0 X150.455 Y92.961 F7200
G1 X136.376 Y107.039 E21.69777 F3600
G0 X135.810 Y107.039 F7200
G1 X149.889 Y92.961 E22.36000 F3600
G0 X149.324 Y92.961 F7200
G1 X135.245 Y107.039 E23.02223 F3600
G0 X134.679 Y107.039 F7200
G1 X148.758 Y92.961 E23.68446 F3600
G0 X148.192 Y92.961 F7200
G1 X134.113 Y107.039 E24.34669 F3600
G0 X133.548 Y107.039 F7200
G1 X147.627 Y92.961 E25.00892 F3600
G0 X147.061 Y92.961 F7200
G1 X132.982 Y107.039 E25.67115 F3600
G0 X132.416 Y107.039 F7200
G1 X146.495 Y92.961 E26.33338 F3600
G0 X145.930 Y92.961 F7200
G1 X131.851 Y107.039 E26.99561 F3600
G0 X131.285 Y107.039 F7200
G1 X145.364 Y92.961 E27.65784 F3600
G0 X144.798 Y92.961 F7200
G1 X130.719 Y107.039 E28.32007 F3600
G0 X130.154 Y107.039 F7200
G1 X144.233 Y92.961 E28.98230 F3600
G0 X143.667 Y92.961 F7200
G1 X129.588 Y107.039 E29.64453 F3600
G0 X129.022 Y107.039 F7200
G1 X143.101 Y92.961 E30.30676 F3600
G0 X142.535 Y92.961 F7200
G1 X128.457 Y107.039 E30.96899 F3600
G0 X127.891 Y107.039 F7200
G1 X141.970 Y92.961 E31.63122 F3600
G0 X141.404 Y92.961 F7200
G1 X127.325 Y107.039 E32.29345 F3600
G0 X126.760 Y107.039 F7200
G1 X140.838 Y92.961 E32.95568 F3600
G0 X140.273 Y92.961 F7200
G1 X126.194 Y107.039 E33.61791 F3600
G0 X125.628 Y107.039 F7200
G1 X139.707 Y92.961 E34.28013 F3600
G0 X139.141 Y92.961 F7200
G1 X125.062 Y107.039 E34.94236 F3600
G0 X124.497 Y107.039 F7200
G1 X138.576 Y92.961 E35.60459 F3600
G0 X138.010 Y92.961 F7200
G1 X123.931 Y107.039 E36.26682 F3600
G0 X123.365 Y107.039 F7200
G1 X137.444 Y92.961 E36.92904 F3600
G0 X136.879 Y92.961 F7200
G1 X122.800 Y107.039 E37.59127 F3600
G0 X122.234 Y107.039 F7200
G1 X136.313 Y92.961 E38.25350 F3600
G0 X135.747 Y92.961 F7200
G1 X121.668 Y107.039 E38.91573 F3600
G0 X121.103 Y107.039 F7200
G1 X135.182 Y92.961 E39.57795 F3600
G0 X134.616 Y92.961 F7200
G1 X120.537 Y107.039 E40.24018 F3600
G0 X119.971 Y107.039 F7200
G1 X134.050 Y92.961 E40.90241 F3600
G0 X133.485 Y92.961 F7200
G1 X119.406 Y107.039 E41.56464 F3600
G0 X118.840 Y107.039 F7200
G1 X132.919 Y92.961 E42.22687 F3600
G0 X132.353 Y92.961 F7200
G1 X118.274 Y107.039 E42.88909 F3600
G0 X117.709 Y107.039 F7200
G1 X131.787 Y92.961 E43.55132 F3600
G0 X131.222 Y92.961 F7200
G1 X117.143 Y107.039 E44.21355 F3600
G0 X116.577 Y107.039 F7200
G1 X130.656 Y92.961 E44.87578 F3600
G0 X130.090 Y92.961 F7200
G1 X116.011 Y107.039 E45.53800 F3600
G0 X115.446 Y107.039 F7200
G1 X129.525 Y92.961 E46.20023 F3600
G0 X128.959 Y92.961 F7200
G1 X114.880 Y107.039 E46.86246 F3600
G0 X114.314 Y107.039 F7200
G1 X128.393 Y92.961 E47.52469 F3600
G0 X127.828 Y92.961 F7200
G1 X113.749 Y107.039 E48.18692 F3600
G0 X113.183 Y107.039 F7200
G1 X127.262 Y92.961 E48.84914 F3600
G0 X126.696 Y92.961 F7200
G1 X112.617 Y107.039 E49.51137 F3600
G0 X112.052 Y107.039 F7200
G1 X126.131 Y92.961 E50.17360 F3600
G0 X125.565 Y92.961 F7200
G1 X111.486 Y107.039 E50.83583 F3600
G0 X110.920 Y107.039 F7200
G1 X124.999 Y92.961 E51.49805 F3600
G0 X124.434 Y92.961 F7200
G1 X110.355 Y107.039 E52.16028 F3600
G0 X109.789 Y107.039 F7200
G1 X123.868 Y92.961 E52.82251 F3600
G0 X123.302 Y92.961 F7200
G1 X109.223 Y107.039 E53.48474 F3600
G0 X108.658 Y107.039 F7200
G1 X122.736 Y92.961 E54.14696 F3600
G0 X122.171 Y92.961 F7200
G1 X108.092 Y107.039 E54.80919 F3600
G0 X107.526 Y107.039 F7200
G1 X121.605 Y92.961 E55.47142 F3600
G0 X121.039 Y92.961 F7200
G1 X106.961 Y107.039 E56.13365 F3600
G0 X106.395 Y107.039 F7200
G1 X120.474 Y92.961 E56.79587 F3600
G0 X119.908 Y92.961 F7200
G1 X105.961 Y106.908 E57.45192 F3600
G0 X105.961 Y106.342 F7200
G1 X119.342 Y92.961 E58.08136 F3600
G0 X118.777 Y92.961 F7200
G1 X105.961 Y105.777 E58.68420 F3600
G0 X105.961 Y105.211 F7200
G1 X118.211 Y92.961 E59.26042 F3600
G0 X117.645 Y92.961 F7200
G1 X105.961 Y104.645 E59.81004 F3600
G0 X105.961 Y104.080 F7200
G1 X117.080 Y92.961 E60.33305 F3600
G0 X116.514 Y92.961 F7200
G1 X105.961 Y103.514 E60.82945 F3600
G0 X105.961 Y102.948 F7200
G1 X115.948 Y92.961 E61.29924 F3600
G0 X115.383 Y92.961 F7200
G1 X105.961 Y102.383 E61.74242 F3600
G0 X105.961 Y101.817 F7200
G1 X114.817 Y92.961 E62.15900 F3600
G0 X114.251 Y92.961 F7200
G1 X105.961 Y101.251 E62.54897 F3600
G0 X105.961 Y100.686 F7200
G1 X113.686 Y92.961 E62.91233 F3600
G0 X113.120 Y92.961 F7200
G1 X105.961 Y100.120 E63.24908 F3600
G0 X105.961 Y99.554 F7200
G1 X112.554 Y92.961 E63.55922 F3600
G0 X111.988 Y92.961 F7200
G1 X105.961 Y98.989 E63.84276 F3600
G0 X105.961 Y98.423 F7200
G1 X111.423 Y92.961 E64.09968 F3600
G0 X110.857 Y92.961 F7200
G1 X105.961 Y97.857 E64.33000 F3600
G0 X105.961 Y97.291 F7200
G1 X110.291 Y92.961 E64.53371 F3600
G0 X109.726 Y92.961 F7200
G1 X105.961 Y96.726 E64.71081 F3600
G0 X105.961 Y96.160 F7200
G1 X109.160 Y92.961 E64.86131 F3600
; ------------------------------------
; Layer #4
; ------------------------------------
G92 E0 ;reset extr
G0 F3000 E-1.00000
G0 F600 Z1.000
G0 X119.141 Y107.039 F7200
G0 F3000 E0.00000
;segType:Infill
G1 X105.961 Y93.859 E0.74399 F4500
G0 X105.600 Y92.600 F7200
G0 X105.416 Y92.780
;segType:Perimeter
G1 X105.260 Y92.200 E0.76394 F2160
G1 X154.800 Y92.200 E2.41162
G1 X154.800 Y107.800 E2.93045
G1 X105.200 Y107.800 E4.58013
G1 X105.200 Y92.260 E5.09697
G0 X105.973 Y92.467 F7200
G0 X106.300 Y92.600
;segType:Loop
G1 X154.400 Y92.600 E6.69675 F3600
G1 X154.400 Y107.400 E7.18897
G1 X105.600 Y107.400 E8.81204
G1 X105.600 Y92.600 E9.30427
G1 X106.100 Y92.600 E9.32090
G0 F3000 E8.32090
G0 X109.588 Y92.961 F7200
G0 F3000 E9.32090
;segType:Infill
G1 X123.667 Y107.039 E10.11557 F4500
G0 X132.718 Y107.039 F7200
G1 X118.639 Y92.961 E10.91025 F4500
G0 X123.164 Y92.961 F7200
G1 X137.243 Y107.039 E11.70493 F4500
G0 X141.769 Y107.039 F7200
G1 X127.690 Y92.961 E12.49960 F4500
G0 X132.215 Y92.961 F7200
G1 X146.294 Y107.039 E13.29428 F4500
G0 X150.820 Y107.039 F7200
G1 X136.741 Y92.961 E14.08896 F4500
G0 X141.266 Y92.961 F7200
G1 X154.039 Y105.734 E14.80993 F4500
G0 X154.039 Y101.208 F7200
G1 X145.792 Y92.961 E15.27546 F4500
G0 X150.317 Y92.961 F7200
G1 X154.039 Y96.683 E15.48556 F4500
G0 X128.192 Y107.039 F7200
G1 X114.113 Y92.961 E16.28023 F4500
G0 X105.961 Y102.910 F7200
G1 X110.090 Y107.039 E16.51334 F4500
G0 X114.616 Y107.039 F7200
G1 X105.961 Y98.384 E17.00189 F4500
; ------------------------------------
; Layer #5
; ------------------------------------
G92 E0 ;reset extr
G0 F3000 E-1.00000
G0 F600 Z1.200
G0 X107.463 Y92.961 F7200
G0 F3000 E0.00000
;segType:Infill
G1 X105.961 Y94.463 E0.08481 F4500
G0 X106.300 Y92.600 F7200
;segType:Loop
G1 X154.400 Y92.600 E1.68459 F3600
G1 X154.400 Y107.400 E2.17682
G1 X105.600 Y107.400 E3.79988
G1 X105.600 Y92.600 E4.29211
G1 X106.100 Y92.600 E4.30874
G0 X106.100 Y92.600 F7200
G0 X105.600 Y92.732
G0 X105.416 Y92.780
;segType:Perimeter
G1 X105.260 Y92.200 E4.32869 F2160
G1 X154.800 Y92.200 E5.97637
G1 X154.800 Y107.800 E6.49521
G1 X105.200 Y107.800 E8.14488
G1 X105.200 Y92.260 E8.66172
G0 X105.973 Y92.467 F7200
G0 F3000 E7.66172
G0 X105.961 Y98.989 F7200
G0 F3000 E8.66172
;segType:Infill
G1 X111.988 Y92.961 E9.00196 F4500
G0 X125.062 Y107.039 F7200
G1 X139.141 Y92.961 E9.79664 F4500
G0 X143.667 Y92.961 F7200
G1 X129.588 Y107.039 E10.59132 F4500
G0 X134.113 Y107.039 F7200
G1 X148.192 Y92.961 E11.38599 F4500
G0 F3000 E10.38599
G0 X148.089 Y92.600 F7200
G0 X152.318 Y107.400
G0 X152.215 Y107.039
G0 F3000 E11.38599
G1 X154.039 Y105.215 E11.48896 F4500
G0 X154.039 Y100.690 F7200
G1 X147.690 Y107.039 E11.84736 F4500
G0 X143.164 Y107.039 F7200
G1 X154.039 Y96.164 E12.46119 F4500
G0 X152.718 Y92.961 F7200
G1 X138.639 Y107.039 E13.25587 F4500
G0 F3000 E12.25587
G0 X138.742 Y107.400 F7200
G0 X134.513 Y92.600
G0 X134.616 Y92.961
G0 F3000 E13.25587
G1 X120.537 Y107.039 E14.05055 F4500
G0 X116.011 Y107.039 F7200
G1 X130.090 Y92.961 E14.84522 F4500
G0 X125.565 Y92.961 F7200
G1 X111.486 Y107.039 E15.63990 F4500
G0 X106.961 Y107.039 F7200
G1 X121.039 Y92.961 E16.43458 F4500
G0 X116.514 Y92.961 F7200
G1 X105.961 Y103.514 E17.03026 F4500
; ------------------------------------
; Layer #6
; ------------------------------------
G92 E0 ;reset extr
G0 F3000 E-1.00000
G0 F600 Z1.400
G0 X119.141 Y107.039 F7200
G0 F3000 E0.00000
;segType:Infill
G1 X105.961 Y93.859 E0.74399 F4500
G0 X105.600 Y92.600 F7200
G0 X105.416 Y92.780
;segType:Perimeter
G1 X105.260 Y92.200 E0.76394 F2160
G1 X154.800 Y92.200 E2.41162
G1 X154.800 Y107.800 E2.93045
G1 X105.200 Y107.800 E4.58013
G1 X105.200 Y92.260 E5.09697
G0 X105.973 Y92.467 F7200
G0 X106.300 Y92.600
;segType:Loop
G1 X154.400 Y92.600 E6.69675 F3600
G1 X154.400 Y107.400 E7.18898
G1 X105.600 Y107.400 E8.81204
G1 X105.600 Y92.600 E9.30427
G1 X106.100 Y92.600 E9.32090
G0 F3000 E8.32090
G0 X109.588 Y92.961 F7200
G0 F3000 E9.32090
;segType:Infill
G1 X123.667 Y107.039 E10.11558 F4500
G0 X114.616 Y107.039 F7200
G1 X105.961 Y98.384 E10.60412 F4500
G0 X105.961 Y102.910 F7200
G1 X110.090 Y107.039 E10.83723 F4500
G0 X128.192 Y107.039 F7200
G1 X114.113 Y92.961 E11.63191 F4500
G0 X132.215 Y92.961 F7200
G1 X146.294 Y107.039 E12.42659 F4500
G0 X150.820 Y107.039 F7200
G1 X136.741 Y92.961 E13.22126 F4500
G0 X141.266 Y92.961 F7200
G1 X154.039 Y105.734 E13.94224 F4500
G0 X154.039 Y96.683 F7200
G1 X150.317 Y92.961 E14.15233 F4500
G0 X154.039 Y101.208 F7200
G1 X145.792 Y92.961 E14.61787 F4500
G0 F3000 E13.61787
G0 X145.895 Y92.600 F7200
G0 X141.666 Y107.400
G0 X141.769 Y107.039
G0 F3000 E14.61787
G1 X127.690 Y92.961 E15.41254 F4500
G0 X123.164 Y92.961 F7200
G1 X137.243 Y107.039 E16.20722 F4500
G0 X132.718 Y107.039 F7200
G1 X118.639 Y92.961 E17.00189 F4500
; ------------------------------------
; Layer #7
; ------------------------------------
G92 E0 ;reset extr
G0 F3000 E-1.00000
G0 F600 Z1.600
G0 X107.463 Y92.961 F7200
G0 F3000 E0.00000
;segType:Infill
G1 X105.961 Y94.463 E0.08481 F4500
G0 X106.300 Y92.600 F7200
;segType:Loop
G1 X154.400 Y92.600 E1.68459 F3600
G1 X154.400 Y107.400 E2.17682
G1 X105.600 Y107.400 E3.79988
G1 X105.600 Y92.600 E4.29211
G1 X106.100 Y92.600 E4.30874
G0 X106.100 Y92.600 F7200
G0 X105.600 Y92.732
G0 X105.416 Y92.780
;segType:Perimeter
G1 X105.260 Y92.200 E4.32869 F2160
G1 X154.800 Y92.200 E5.97637
G1 X154.800 Y107.800 E6.49520
G1 X105.200 Y107.800 E8.14488
G1 X105.200 Y92.260 E8.66171
G0 X105.973 Y92.467 F7200
G0 F3000 E7.66171
G0 X105.961 Y98.989 F7200
G0 F3000 E8.66171
;segType:Infill
G1 X111.989 Y92.961 E9.00196 F4500
G0 X116.514 Y92.961 F7200
G1 X105.961 Y103.514 E9.59764 F4500
G0 F3000 E8.59764
G0 X106.961 Y107.039 F7200
G0 F3000 E9.59764
G1 X121.039 Y92.961 E10.39232 F4500
G0 X152.215 Y107.039 F7200
G1 X154.039 Y105.215 E10.49528 F4500
G0 X154.039 Y100.690 F7200
G1 X147.690 Y107.039 E10.85368 F4500
G0 X143.164 Y107.039 F7200
G1 X154.039 Y96.164 E11.46752 F4500
G0 X152.718 Y92.961 F7200
G1 X138.639 Y107.039 E12.26219 F4500
G0 X134.113 Y107.039 F7200
G1 X148.192 Y92.961 E13.05687 F4500
G0 X143.667 Y92.961 F7200
G1 X129.588 Y107.039 E13.85155 F4500
G0 X125.062 Y107.039 F7200
G1 X139.141 Y92.961 E14.64622 F4500
G0 X134.616 Y92.961 F7200
G1 X120.537 Y107.039 E15.44090 F4500
G0 X116.011 Y107.039 F7200
G1 X130.090 Y92.961 E16.23558 F4500
G0 X125.565 Y92.961 F7200
G1 X111.486 Y107.039 E17.03025 F4500
; ------------------------------------
; Layer #8
; ------------------------------------
G92 E0 ;reset extr
G0 F3000 E-1.00000
G0 F600 Z1.800
G0 X119.141 Y107.039 F7200
G0 F3000 E0.00000
;segType:Infill
G1 X105.961 Y93.859 E0.74399 F4500
G0 X105.600 Y92.600 F7200
G0 X105.416 Y92.780
;segType:Perimeter
G1 X105.260 Y92.200 E0.76394 F2160
G1 X154.800 Y92.200 E2.41162
G1 X154.800 Y107.800 E2.93045
G1 X105.200 Y107.800 E4.58013
G1 X105.200 Y92.260 E5.09697
G0 X105.973 Y92.467 F7200
G0 X106.300 Y92.600
;segType:Loop
G1 X154.400 Y92.600 E6.69675 F3600
G1 X154.400 Y107.400 E7.18898
G1 X105.600 Y107.400 E8.81204
G1 X105.600 Y92.600 E9.30427
G1 X106.100 Y92.600 E9.32090
G0 F3000 E8.32090
G0 X109.588 Y92.961 F7200
G0 F3000 E9.32090
;segType:Infill
G1 X123.667 Y107.039 E10.11558 F4500
G0 X132.718 Y107.039 F7200
G1 X118.639 Y92.961 E10.91025 F4500
G0 X123.164 Y92.961 F7200
G1 X137.243 Y107.039 E11.70493 F4500
G0 X141.769 Y107.039 F7200
G1 X127.690 Y92.961 E12.49961 F4500
G0 X132.215 Y92.961 F7200
G1 X146.294 Y107.039 E13.29428 F4500
G0 X150.820 Y107.039 F7200
G1 X136.741 Y92.961 E14.08896 F4500
G0 X141.266 Y92.961 F7200
G1 X154.039 Y105.734 E14.80993 F4500
G0 X154.039 Y101.208 F7200
G1 X145.792 Y92.961 E15.27547 F4500
G0 X150.317 Y92.961 F7200
G1 X154.039 Y96.683 E15.48556 F4500
G0 X128.192 Y107.039 F7200
G1 X114.113 Y92.961 E16.28024 F4500
G0 X105.961 Y102.910 F7200
G1 X110.090 Y107.039 E16.51335 F4500
G0 X114.616 Y107.039 F7200
G1 X105.961 Y98.384 E17.00190 F4500
; ------------------------------------
; Layer #9
; ------------------------------------
G92 E0 ;reset extr
G0 F3000 E-1.00000
G0 F600 Z2.000
G0 X107.463 Y92.961 F7200
G0 F3000 E0.00000
;segType:Infill
G1 X105.961 Y94.463 E0.08481 F4500
G0 X106.300 Y92.600 F7200
;segType:Loop
G1 X154.400 Y92.600 E1.68459 F3600
G1 X154.400 Y107.400 E2.17682
G1 X105.600 Y107.400 E3.79988
G1 X105.600 Y92.600 E4.29211
G1 X106.100 Y92.600 E4.30874
G0 X106.100 Y92.600 F7200
G0 X105.600 Y92.732
G0 X105.416 Y92.780
;segType:Perimeter
G1 X105.260 Y92.200 E4.32869 F2160
G1 X154.800 Y92.200 E5.97637
G1 X154.800 Y107.800 E6.49520
G1 X105.200 Y107.800 E8.14488
G1 X105.200 Y92.260 E8.66171
G0 X105.973 Y92.467 F7200
G0 F3000 E7.66171
G0 X105.600 Y92.600 F7200
G0 X111.989 Y92.961
G0 F3000 E8.66171
;segType:Infill
G1 X105.961 Y98.989 E9.00196 F4500
G0 X105.961 Y103.514 F7200
G1 X116.514 Y92.961 E9.59764 F4500
G0 X121.039 Y92.961 F7200
G1 X106.961 Y107.039 E10.39232 F4500
G0 X116.012 Y107.039 F7200
G1 X130.090 Y92.961 E11.18700 F4500
G0 X134.616 Y92.961 F7200
G1 X120.537 Y107.039 E11.98167 F4500
G0 X125.062 Y107.039 F7200
G1 X139.141 Y92.961 E12.77635 F4500
G0 F3000 E11.77635
G0 X139.154 Y92.600 F7200
G0 X138.626 Y107.400
G0 X138.639 Y107.039
G0 F3000 E12.77635
G1 X152.718 Y92.961 E13.57103 F4500
G0 X154.039 Y96.164 F7200
G1 X143.164 Y107.039 E14.18486 F4500
G0 X147.690 Y107.039 F7200
G1 X154.039 Y100.690 E14.54326 F4500
G0 X154.039 Y105.215 F7200
G1 X152.215 Y107.039 E14.64622 F4500
G0 X134.113 Y107.039 F7200
G1 X148.192 Y92.961 E15.44089 F4500
G0 X143.667 Y92.961 F7200
G1 X129.588 Y107.039 E16.23557 F4500
G0 F3000 E15.23557
G0 X129.691 Y107.400 F7200
G0 X125.462 Y92.600
G0 X125.565 Y92.961
G0 F3000 E16.23557
G1 X111.486 Y107.039 E17.03025 F4500
; ------------------------------------
; Layer #10
; ------------------------------------
G92 E0 ;reset extr
G0 F3000 E-1.00000
G0 F600 Z2.200
G0 X119.141 Y107.039 F7200
G0 F3000 E0.00000
;segType:Infill
G1 X105.961 Y93.859 E0.74399 F4500
G0 X105.600 Y92.600 F7200
G0 X105.416 Y92.780
;segType:Perimeter
G1 X105.260 Y92.200 E0.76394 F2160
G1 X154.800 Y92.200 E2.41162
G1 X154.800 Y107.800 E2.93045
G1 X105.200 Y107.800 E4.58013
G1 X105.200 Y92.260 E5.09697
G0 X105.973 Y92.467 F7200
G0 X106.300 Y92.600
;segType:Loop
G1 X154.400 Y92.600 E6.69675 F3600
G1 X154.400 Y107.400 E7.18898
G1 X105.600 Y107.400 E8.81204
G1 X105.600 Y92.600 E9.30427
G1 X106.100 Y92.600 E9.32090
G0 F3000 E8.32090
G0 X109.588 Y92.961 F7200
G0 F3000 E9.32090
;segType:Infill
G1 X123.667 Y107.039 E10.11558 F4500
G0 X114.616 Y107.039 F7200
G1 X105.961 Y98.384 E10.60412 F4500
G0 X105.961 Y102.910 F7200
G1 X110.090 Y107.039 E10.83724 F4500
G0 X128.192 Y107.039 F7200
G1 X114.113 Y92.961 E11.63191 F4500
G0 X132.215 Y92.961 F7200
G1 X146.294 Y107.039 E12.42659 F4500
G0 X150.820 Y107.039 F7200
G1 X136.741 Y92.961 E13.22127 F4500
G0 X141.266 Y92.961 F7200
G1 X154.039 Y105.734 E13.94224 F4500
G0 X154.039 Y96.683 F7200
G1 X150.317 Y92.961 E14.15233 F4500
G0 X154.039 Y101.208 F7200
G1 X145.792 Y92.961 E14.61786 F4500
G0 F3000 E13.61786
G0 X145.895 Y92.600 F7200
G0 X141.666 Y107.400
G0 X141.769 Y107.039
G0 F3000 E14.61786
G1 X127.690 Y92.961 E15.41254 F4500
G0 X123.164 Y92.961 F7200
G1 X137.243 Y107.039 E16.20722 F4500
G0 X132.718 Y107.039 F7200
G1 X118.639 Y92.961 E17.00189 F4500
; ------------------------------------
; Layer #11
; ------------------------------------
G92 E0 ;reset extr
G0 F3000 E-1.00000
G0 F600 Z2.400
G0 X107.463 Y92.961 F7200
G0 F3000 E0.00000
;segType:Infill
G1 X105.961 Y94.463 E0.08481 F4500
G0 X106.300 Y92.600 F7200
;segType:Loop
G1 X154.400 Y92.600 E1.68459 F3600
G1 X154.400 Y107.400 E2.17682
G1 X105.600 Y107.400 E3.79988
G1 X105.600 Y92.600 E4.29211
G1 X106.100 Y92.600 E4.30874
G0 X106.100 Y92.600 F7200
G0 X105.600 Y92.732
G0 X105.416 Y92.780
;segType:Perimeter
G1 X105.260 Y92.200 E4.32869 F2160
G1 X154.800 Y92.200 E5.97637
G1 X154.800 Y107.800 E6.49521
G1 X105.200 Y107.800 E8.14488
G1 X105.200 Y92.260 E8.66172
G0 X105.973 Y92.467 F7200
G0 F3000 E7.66172
G0 X105.961 Y98.989 F7200
G0 F3000 E8.66172
;segType:Infill
G1 X111.989 Y92.961 E9.00196 F4500
G0 X116.514 Y92.961 F7200
G1 X105.961 Y103.514 E9.59765 F4500
G0 F3000 E8.59765
G0 X106.961 Y107.039 F7200
G0 F3000 E9.59765
G1 X121.039 Y92.961 E10.39232 F4500
G0 X152.215 Y107.039 F7200
G1 X154.039 Y105.215 E10.49529 F4500
G0 X154.039 Y100.690 F7200
G1 X147.690 Y107.039 E10.85369 F4500
G0 X143.164 Y107.039 F7200
G1 X154.039 Y96.164 E11.46752 F4500
G0 X152.718 Y92.961 F7200
G1 X138.639 Y107.039 E12.26220 F4500
G0 X134.113 Y107.039 F7200
G1 X148.192 Y92.961 E13.05688 F4500
G0 X143.667 Y92.961 F7200
G1 X129.588 Y107.039 E13.85155 F4500
G0 X125.062 Y107.039 F7200
G1 X139.141 Y92.961 E14.64623 F4500
G0 X134.616 Y92.961 F7200
G1 X120.537 Y107.039 E15.44091 F4500
G0 X116.011 Y107.039 F7200
G1 X130.090 Y92.961 E16.23558 F4500
G0 X125.565 Y92.961 F7200
G1 X111.486 Y107.039 E17.03026 F4500
; ------------------------------------
; Layer #12
; ------------------------------------
G92 E0 ;reset extr
G0 F3000 E-1.00000
G0 F600 Z2.600
G0 X119.141 Y107.039 F7200
G0 F3000 E0.00000
;segType:Infill
G1 X105.961 Y93.859 E0.74399 F4500
G0 X105.600 Y92.600 F7200
G0 X105.416 Y92.780
;segType:Perimeter
G1 X105.260 Y92.200 E0.76394 F2160
G1 X154.800 Y92.200 E2.41162
G1 X154.800 Y107.800 E2.93045
G1 X105.200 Y107.800 E4.58013
G1 X105.200 Y92.260 E5.09697
G0 X105.973 Y92.467 F7200
G0 X106.300 Y92.600
;segType:Loop
G1 X154.400 Y92.600 E6.69675 F3600
G1 X154.400 Y107.400 E7.18898
G1 X105.600 Y107.400 E8.81204
G1 X105.600 Y92.600 E9.30427
G1 X106.100 Y92.600 E9.32090
G0 F3000 E8.32090
G0 X109.588 Y92.961 F7200
G0 F3000 E9.32090
;segType:Infill
G1 X123.667 Y107.039 E10.11558 F4500
G0 X132.718 Y107.039 F7200
G1 X118.639 Y92.961 E10.91025 F4500
G0 X123.164 Y92.961 F7200
G1 X137.243 Y107.039 E11.70493 F4500
G0 X141.769 Y107.039 F7200
G1 X127.690 Y92.961 E12.49961 F4500
G0 X132.215 Y92.961 F7200
G1 X146.294 Y107.039 E13.29428 F4500
G0 X150.820 Y107.039 F7200
G1 X136.741 Y92.961 E14.08896 F4500
G0 X141.266 Y92.961 F7200
G1 X154.039 Y105.734 E14.80993 F4500
G0 X154.039 Y101.208 F7200
G1 X145.792 Y92.961 E15.27547 F4500
G0 X150.317 Y92.961 F7200
G1 X154.039 Y96.683 E15.48556 F4500
G0 X128.192 Y107.039 F7200
G1 X114.113 Y92.961 E16.28024 F4500
G0 X105.961 Y102.910 F7200
G1 X110.090 Y107.039 E16.51335 F4500
G0 X114.616 Y107.039 F7200
G1 X105.961 Y98.384 E17.00190 F4500
; ------------------------------------
; Layer #13
; ------------------------------------
G92 E0 ;reset extr
G0 F3000 E-1.00000
G0 F600 Z2.800
G0 X107.463 Y92.961 F7200
G0 F3000 E0.00000
;segType:Infill
G1 X105.961 Y94.463 E0.08481 F4500
G0 X106.300 Y92.600 F7200
;segType:Loop
G1 X154.400 Y92.600 E1.68459 F3600
G1 X154.400 Y107.400 E2.17682
G1 X105.600 Y107.400 E3.79988
G1 X105.600 Y92.600 E4.29211
G1 X106.100 Y92.600 E4.30874
G0 X106.100 Y92.600 F7200
G0 X105.600 Y92.732
G0 X105.416 Y92.780
;segType:Perimeter
G1 X105.260 Y92.200 E4.32869 F2160
G1 X154.800 Y92.200 E5.97637
G1 X154.800 Y107.800 E6.49521
G1 X105.200 Y107.800 E8.14488
G1 X105.200 Y92.260 E8.66172
G0 X105.973 Y92.467 F7200
G0 F3000 E7.66172
G0 X105.600 Y92.600 F7200
G0 X111.988 Y92.961
G0 F3000 E8.66172
;segType:Infill
G1 X105.961 Y98.988 E9.00196 F4500
G0 X105.961 Y103.514 F7200
G1 X116.514 Y92.961 E9.59765 F4500
G0 X121.039 Y92.961 F7200
G1 X106.961 Y107.039 E10.39232 F4500
G0 X116.011 Y107.039 F7200
G1 X130.090 Y92.961 E11.18700 F4500
G0 X134.616 Y92.961 F7200
G1 X120.537 Y107.039 E11.98167 F4500
G0 X125.062 Y107.039 F7200
G1 X139.141 Y92.961 E12.77635 F4500
G0 F3000 E11.77635
G0 X139.154 Y92.600 F7200
G0 X138.626 Y107.400
G0 X138.639 Y107.039
G0 F3000 E12.77635
G1 X152.718 Y92.961 E13.57103 F4500
G0 X154.039 Y96.164 F7200
G1 X143.164 Y107.039 E14.18487 F4500
G0 X147.690 Y107.039 F7200
G1 X154.039 Y100.690 E14.54327 F4500
G0 X154.039 Y105.215 F7200
G1 X152.215 Y107.039 E14.64623 F4500
G0 X134.113 Y107.039 F7200
G1 X148.192 Y92.961 E15.44091 F4500
G0 X143.667 Y92.961 F7200
G1 X129.588 Y107.039 E16.23558 F4500
G0 F3000 E15.23558
G0 X129.691 Y107.400 F7200
G0 X125.462 Y92.600
G0 X125.565 Y92.961
G0 F3000 E16.23558
G1 X111.486 Y107.039 E17.03026 F4500
; ------------------------------------
; Layer #14
; ------------------------------------
G92 E0 ;reset extr
G0 F3000 E-1.00000
G0 F600 Z3.000
G0 X119.141 Y107.039 F7200
G0 F3000 E0.00000
;segType:Infill
G1 X105.961 Y93.859 E0.74399 F4500
G0 X105.600 Y92.600 F7200
G0 X105.416 Y92.780
;segType:Perimeter
G1 X105.260 Y92.200 E0.76394 F2160
G1 X154.800 Y92.200 E2.41162
G1 X154.800 Y107.800 E2.93045
G1 X105.200 Y107.800 E4.58012
G1 X105.200 Y92.260 E5.09696
G0 X105.973 Y92.467 F7200
G0 X106.300 Y92.600
;segType:Loop
G1 X154.400 Y92.600 E6.69674 F3600
G1 X154.400 Y107.400 E7.18897
G1 X105.600 Y107.400 E8.81203
G1 X105.600 Y92.600 E9.30426
G1 X106.100 Y92.600 E9.32089
G0 F3000 E8.32089
G0 X109.588 Y92.961 F7200
G0 F3000 E9.32089
;segType:Infill
G1 X123.667 Y107.039 E10.11556 F4500
G0 X114.616 Y107.039 F7200
G1 X105.961 Y98.384 E10.60411 F4500
G0 X105.961 Y102.910 F7200
G1 X110.090 Y107.039 E10.83722 F4500
G0 X128.192 Y107.039 F7200
G1 X114.113 Y92.961 E11.63189 F4500
G0 X132.215 Y92.961 F7200
G1 X146.294 Y107.039 E12.42657 F4500
G0 X150.820 Y107.039 F7200
G1 X136.741 Y92.961 E13.22125 F4500
G0 X141.266 Y92.961 F7200
G1 X154.039 Y105.734 E13.94222 F4500
G0 X154.039 Y96.683 F7200
G1 X150.317 Y92.961 E14.15231 F4500
G0 X154.039 Y101.208 F7200
G1 X145.792 Y92.961 E14.61784 F4500
G0 F3000 E13.61784
G0 X145.895 Y92.600 F7200
G0 X141.666 Y107.400
G0 X141.769 Y107.039
G0 F3000 E14.61784
G1 X127.690 Y92.961 E15.41252 F4500
G0 X123.164 Y92.961 F7200
G1 X137.243 Y107.039 E16.20720 F4500
G0 X132.718 Y107.039 F7200
G1 X118.639 Y92.961 E17.00187 F4500
; ------------------------------------
; Layer #15
; ------------------------------------
G92 E0 ;reset extr
G0 F3000 E-1.00000
G0 F600 Z3.200
G0 X107.463 Y92.961 F7200
G0 F3000 E0.00000
;segType:Infill
G1 X105.961 Y94.463 E0.08481 F4500
G0 X106.300 Y92.600 F7200
;segType:Loop
G1 X154.400 Y92.600 E1.68459 F3600
G1 X154.400 Y107.400 E2.17682
G1 X105.600 Y107.400 E3.79989
G1 X105.600 Y92.600 E4.29211
G1 X106.100 Y92.600 E4.30874
G0 X106.100 Y92.600 F7200
G0 X105.600 Y92.732
G0 X105.416 Y92.780
;segType:Perimeter
G1 X105.260 Y92.200 E4.32869 F2160
G1 X154.800 Y92.200 E5.97638
G1 X154.800 Y107.800 E6.49521
G1 X105.200 Y107.800 E8.14488
G1 X105.200 Y92.260 E8.66172
G0 X105.973 Y92.467 F7200
G0 F3000 E7.66172
G0 X105.961 Y98.989 F7200
G0 F3000 E8.66172
;segType:Infill
G1 X111.989 Y92.961 E9.00196 F4500
G0 X116.514 Y92.961 F7200
G1 X105.961 Y103.514 E9.59765 F4500
G0 F3000 E8.59765
G0 X106.961 Y107.039 F7200
G0 F3000 E9.59765
G1 X121.039 Y92.961 E10.39232 F4500
G0 X152.215 Y107.039 F7200
G1 X154.039 Y105.215 E10.49528 F4500
G0 X154.039 Y100.690 F7200
G1 X147.690 Y107.039 E10.85368 F4500
G0 X143.164 Y107.039 F7200
G1 X154.039 Y96.164 E11.46752 F4500
G0 X152.718 Y92.961 F7200
G1 X138.639 Y107.039 E12.26220 F4500
G0 X134.113 Y107.039 F7200
G1 X148.192 Y92.961 E13.05687 F4500
G0 X143.667 Y92.961 F7200
G1 X129.588 Y107.039 E13.85155 F4500
G0 X125.062 Y107.039 F7200
G1 X139.141 Y92.961 E14.64623 F4500
G0 X134.616 Y92.961 F7200
G1 X120.537 Y107.039 E15.44090 F4500
G0 X116.012 Y107.039 F7200
G1 X130.090 Y92.961 E16.23558 F4500
G0 X125.565 Y92.961 F7200
G1 X111.486 Y107.039 E17.03026 F4500
; ------------------------------------
; Layer #16
; ------------------------------------
G92 E0 ;reset extr
G0 F3000 E-1.00000
G0 F600 Z3.400
G0 X119.707 Y107.039 F7200
G0 F3000 E0.00000
;segType:HShell
G1 X105.961 Y93.293 E0.64660 F3600
G0 X105.416 Y92.780 F7200
;segType:Perimeter
G1 X105.260 Y92.200 E0.66655 F2160
G1 X154.800 Y92.200 E2.31423
G1 X154.800 Y107.800 E2.83306
G1 X105.200 Y107.800 E4.48274
G1 X105.200 Y92.260 E4.99958
G0 X105.973 Y92.467 F7200
G0 X106.300 Y92.600
;segType:Loop
G1 X154.400 Y92.600 E6.59936 F3600
G1 X154.400 Y107.400 E7.09159
G1 X105.600 Y107.400 E8.71465
G1 X105.600 Y92.600 E9.20688
G1 X106.100 Y92.600 E9.22351
G0 X105.961 Y93.859 F7200
;segType:HShell
G1 X119.141 Y107.039 E9.84350 F3600
G0 X118.576 Y107.039 F7200
G1 X105.961 Y94.424 E10.43688 F3600
G0 X105.961 Y94.990 F7200
G1 X118.010 Y107.039 E11.00365 F3600
G0 X117.444 Y107.039 F7200
G1 X105.961 Y95.556 E11.54381 F3600
G0 X105.961 Y96.121 F7200
G1 X116.879 Y107.039 E12.05737 F3600
G0 X116.313 Y107.039 F7200
G1 X105.961 Y96.687 E12.54432 F3600
G0 X105.961 Y97.253 F7200
G1 X115.747 Y107.039 E13.00466 F3600
G0 X115.182 Y107.039 F7200
G1 X105.961 Y97.818 E13.43839 F3600
G0 X105.961 Y98.384 F7200
G1 X114.616 Y107.039 E13.84551 F3600
G0 X114.050 Y107.039 F7200
G1 X105.961 Y98.950 E14.22603 F3600
G0 X105.961 Y99.515 F7200
G1 X113.485 Y107.039 E14.57993 F3600
G0 X112.919 Y107.039 F7200
G1 X105.961 Y100.081 E14.90723 F3600
G0 X105.961 Y100.647 F7200
G1 X112.353 Y107.039 E15.20792 F3600
G0 X111.788 Y107.039 F7200
G1 X105.961 Y101.213 E15.48201 F3600
G0 X105.961 Y101.778 F7200
G1 X111.222 Y107.039 E15.72948 F3600
G0 X110.656 Y107.039 F7200
G1 X105.961 Y102.344 E15.95035 F3600
G0 X105.961 Y102.910 F7200
G1 X110.090 Y107.039 E16.14461 F3600
G0 X109.525 Y107.039 F7200
G1 X105.961 Y103.475 E16.31226 F3600
G0 X105.961 Y104.041 F7200
G1 X108.959 Y107.039 E16.45330 F3600
G0 X108.393 Y107.039 F7200
G1 X105.961 Y104.607 E16.56774 F3600
G0 X105.961 Y105.172 F7200
G1 X107.828 Y107.039 E16.65556 F3600
G0 X107.262 Y107.039 F7200
G1 X105.961 Y105.738 E16.71678 F3600
G0 X105.961 Y106.304 F7200
G1 X106.696 Y107.039 E16.75139 F3600
G0 X106.131 Y107.039 F7200
G1 X105.961 Y106.869 E16.75939 F3600
G0 F3000 E15.75939
G0 X120.273 Y107.039 F7200
G0 F3000 E16.75939
G1 X106.194 Y92.961 E17.42162 F3600
G0 X106.760 Y92.961 F7200
G1 X120.838 Y107.039 E18.08386 F3600
G0 X121.404 Y107.039 F7200
G1 X107.325 Y92.961 E18.74609 F3600
G0 X107.891 Y92.961 F7200
G1 X121.970 Y107.039 E19.40832 F3600
G0 X122.536 Y107.039 F7200
G1 X108.457 Y92.961 E20.07055 F3600
G0 X109.022 Y92.961 F7200
G1 X123.101 Y107.039 E20.73278 F3600
G0 X123.667 Y107.039 F7200
G1 X109.588 Y92.961 E21.39501 F3600
G0 X110.154 Y92.961 F7200
G1 X124.233 Y107.039 E22.05724 F3600
G0 X124.798 Y107.039 F7200
G1 X110.719 Y92.961 E22.71948 F3600
G0 X111.285 Y92.961 F7200
G1 X125.364 Y107.039 E23.38171 F3600
G0 X125.930 Y107.039 F7200
G1 X111.851 Y92.961 E24.04394 F3600
G0 X112.416 Y92.961 F7200
G1 X126.495 Y107.039 E24.70617 F3600
G0 X127.061 Y107.039 F7200
G1 X112.982 Y92.961 E25.36840 F3600
G0 X113.548 Y92.961 F7200
G1 X127.627 Y107.039 E26.03063 F3600
G0 X128.192 Y107.039 F7200
G1 X114.113 Y92.961 E26.69286 F3600
G0 X114.679 Y92.961 F7200
G1 X128.758 Y107.039 E27.35510 F3600
G0 X129.324 Y107.039 F7200
G1 X115.245 Y92.961 E28.01733 F3600
G0 X115.810 Y92.961 F7200
G1 X129.889 Y107.039 E28.67956 F3600
G0 X130.455 Y107.039 F7200
G1 X116.376 Y92.961 E29.34179 F3600
G0 X116.942 Y92.961 F7200
G1 X131.021 Y107.039 E30.00402 F3600
G0 X131.587 Y107.039 F7200
G1 X117.508 Y92.961 E30.66625 F3600
G0 X118.073 Y92.961 F7200
G1 X132.152 Y107.039 E31.32848 F3600
G0 X132.718 Y107.039 F7200
G1 X118.639 Y92.961 E31.99072 F3600
G0 X119.205 Y92.961 F7200
G1 X133.284 Y107.039 E32.65295 F3600
G0 X133.849 Y107.039 F7200
G1 X119.770 Y92.961 E33.31518 F3600
G0 X120.336 Y92.961 F7200
G1 X134.415 Y107.039 E33.97741 F3600
G0 X134.981 Y107.039 F7200
G1 X120.902 Y92.961 E34.63964 F3600
G0 X121.467 Y92.961 F7200
G1 X135.546 Y107.039 E35.30187 F3600
G0 X136.112 Y107.039 F7200
G1 X122.033 Y92.961 E35.96410 F3600
G0 X122.599 Y92.961 F7200
G1 X136.678 Y107.039 E36.62634 F3600
G0 X137.243 Y107.039 F7200
G1 X123.164 Y92.961 E37.28857 F3600
G0 X123.730 Y92.961 F7200
G1 X137.809 Y107.039 E37.95080 F3600
G0 X138.375 Y107.039 F7200
G1 X124.296 Y92.961 E38.61303 F3600
G0 X124.861 Y92.961 F7200
G1 X138.940 Y107.039 E39.27526 F3600
G0 X139.506 Y107.039 F7200
G1 X125.427 Y92.961 E39.93749 F3600
G0 X125.993 Y92.961 F7200
G1 X140.072 Y107.039 E40.59973 F3600
G0 X140.638 Y107.039 F7200
G1 X126.559 Y92.961 E41.26196 F3600
G0 X127.124 Y92.961 F7200
G1 X141.203 Y107.039 E41.92419 F3600
G0 X141.769 Y107.039 F7200
G1 X127.690 Y92.961 E42.58642 F3600
G0 X128.256 Y92.961 F7200
G1 X142.335 Y107.039 E43.24865 F3600
G0 X142.900 Y107.039 F7200
G1 X128.821 Y92.961 E43.91088 F3600
G0 X129.387 Y92.961 F7200
G1 X143.466 Y107.039 E44.57311 F3600
G0 X144.032 Y107.039 F7200
G1 X129.953 Y92.961 E45.23535 F3600
G0 X130.518 Y92.961 F7200
G1 X144.597 Y107.039 E45.89758 F3600
G0 X145.163 Y107.039 F7200
G1 X131.084 Y92.961 E46.55981 F3600
G0 X131.650 Y92.961 F7200
G1 X145.729 Y107.039 E47.22204 F3600
G0 X146.294 Y107.039 F7200
G1 X132.215 Y92.961 E47.88427 F3600
G0 X132.781 Y92.961 F7200
G1 X146.860 Y107.039 E48.54650 F3600
G0 X147.426 Y107.039 F7200
G1 X133.347 Y92.961 E49.20874 F3600
G0 X133.912 Y92.961 F7200
G1 X147.991 Y107.039 E49.87097 F3600
G0 X148.557 Y107.039 F7200
G1 X134.478 Y92.961 E50.53320 F3600
G0 X135.044 Y92.961 F7200
G1 X149.123 Y107.039 E51.19543 F3600
G0 X149.688 Y107.039 F7200
G1 X135.609 Y92.961 E51.85766 F3600
G0 X136.175 Y92.961 F7200
G1 X150.254 Y107.039 E52.51989 F3600
G0 X150.820 Y107.039 F7200
G1 X136.741 Y92.961 E53.18212 F3600
G0 X137.307 Y92.961 F7200
G1 X151.386 Y107.039 E53.84436 F3600
G0 X151.951 Y107.040 F7200
G1 X137.872 Y92.961 E54.50659 F3600
G0 X138.438 Y92.961 F7200
G1 X152.517 Y107.040 E55.16882 F3600
G0 X153.083 Y107.040 F7200
G1 X139.004 Y92.961 E55.83105 F3600
G0 X139.569 Y92.961 F7200
G1 X153.648 Y107.040 E56.49328 F3600
G0 X154.039 Y106.865 F7200
G1 X140.135 Y92.961 E57.14731 F3600
G0 X140.701 Y92.961 F7200
G1 X154.039 Y106.299 E57.77472 F3600
G0 X154.039 Y105.734 F7200
G1 X141.266 Y92.961 E58.37553 F3600
G0 X141.832 Y92.961 F7200
G1 X154.039 Y105.168 E58.94973 F3600
G0 X154.039 Y104.602 F7200
G1 X142.398 Y92.961 E59.49732 F3600
G0 X142.963 Y92.961 F7200
G1 X154.039 Y104.037 E60.01831 F3600
G0 X154.039 Y103.471 F7200
G1 X143.529 Y92.961 E60.51268 F3600
G0 X144.095 Y92.961 F7200
G1 X154.039 Y102.905 E60.98045 F3600
G0 X154.039 Y102.340 F7200
G1 X144.660 Y92.961 E61.42161 F3600
G0 X145.226 Y92.961 F7200
G1 X154.039 Y101.774 E61.83616 F3600
G0 X154.039 Y101.208 F7200
G1 X145.792 Y92.961 E62.22410 F3600
G0 X146.358 Y92.961 F7200
G1 X154.039 Y100.642 E62.58544 F3600
G0 X154.039 Y100.077 F7200
G1 X146.923 Y92.961 E62.92017 F3600
G0 X147.489 Y92.961 F7200
G1 X154.039 Y99.511 E63.22829 F3600
G0 X154.039 Y98.945 F7200
G1 X148.055 Y92.961 E63.50980 F3600
G0 X148.620 Y92.961 F7200
G1 X154.039 Y98.380 E63.76470 F3600
G0 X154.039 Y97.814 F7200
G1 X149.186 Y92.961 E63.99299 F3600
G0 X149.752 Y92.961 F7200
G1 X154.039 Y97.248 E64.19468 F3600
G0 X154.039 Y96.683 F7200
G1 X150.317 Y92.961 E64.36976 F3600
G0 X150.883 Y92.961 F7200
G1 X154.039 Y96.117 E64.51823 F3600
G0 X154.039 Y95.551 F7200
G1 X151.449 Y92.961 E64.64009 F3600
G0 X152.014 Y92.961 F7200
G1 X154.039 Y94.986 E64.73535 F3600
G0 X154.039 Y94.420 F7200
G1 X152.580 Y92.961 E64.80400 F3600
G0 X153.146 Y92.961 F7200
G1 X154.039 Y93.854 E64.84603 F3600
G0 X154.039 Y93.289 F7200
G1 X153.711 Y92.961 E64.86146 F3600
; ------------------------------------
; Layer #17
; ------------------------------------
G92 E0 ;reset extr
G0 F3000 E-1.00000
G0 F600 Z3.600
G0 X108.594 Y92.961 F7200
G0 F3000 E0.00000
;segType:HShell
G1 X105.961 Y95.594 E0.12389 F3600
G0 X105.961 Y95.029 F7200
G1 X108.029 Y92.961 E0.22117 F3600
G0 X107.463 Y92.961 F7200
G1 X105.961 Y94.463 E0.29184 F3600
G0 X105.961 Y93.897 F7200
G1 X106.897 Y92.961 E0.33591 F3600
G0 X105.961 Y93.332 F7200
G1 X106.332 Y92.961 E0.35336 F3600
G0 X105.416 Y92.780 F7200
;segType:Perimeter
G1 X105.260 Y92.200 E0.37332 F2160
G1 X154.800 Y92.200 E2.02100
G1 X154.800 Y107.800 E2.53983
G1 X105.200 Y107.800 E4.18951
G1 X105.200 Y92.260 E4.70634
G0 X105.973 Y92.467 F7200
G0 X106.300 Y92.600
;segType:Loop
G1 X154.400 Y92.600 E6.30613 F3600
G1 X154.400 Y107.400 E6.79835
G1 X105.600 Y107.400 E8.42142
G1 X105.600 Y92.600 E8.91365
G1 X106.100 Y92.600 E8.93028
G0 F3000 E7.93028
G0 X105.961 Y96.160 F7200
G0 F3000 E8.93028
;segType:HShell
G1 X109.160 Y92.961 E9.08077 F3600
G0 X109.726 Y92.961 F7200
G1 X105.961 Y96.726 E9.25788 F3600
G0 X105.961 Y97.291 F7200
G1 X110.291 Y92.961 E9.46159 F3600
G0 X110.857 Y92.961 F7200
G1 X105.961 Y97.857 E9.69191 F3600
G0 X105.961 Y98.423 F7200
G1 X111.423 Y92.961 E9.94884 F3600
G0 X111.988 Y92.961 F7200
G1 X105.961 Y98.989 E10.23238 F3600
G0 X105.961 Y99.554 F7200
G1 X112.554 Y92.961 E10.54252 F3600
G0 X113.120 Y92.961 F7200
G1 X105.961 Y100.120 E10.87928 F3600
G0 X105.961 Y100.686 F7200
G1 X113.686 Y92.961 E11.24264 F3600
G0 X114.251 Y92.961 F7200
G1 X105.961 Y101.251 E11.63261 F3600
G0 X105.961 Y101.817 F7200
G1 X114.817 Y92.961 E12.04919 F3600
G0 X115.383 Y92.961 F7200
G1 X105.961 Y102.383 E12.49238 F3600
G0 X105.961 Y102.948 F7200
G1 X115.948 Y92.961 E12.96217 F3600
G0 X116.514 Y92.961 F7200
G1 X105.961 Y103.514 E13.45857 F3600
G0 X105.961 Y104.080 F7200
G1 X117.080 Y92.961 E13.98158 F3600
G0 X117.645 Y92.961 F7200
G1 X105.961 Y104.645 E14.53120 F3600
G0 X105.961 Y105.211 F7200
G1 X118.211 Y92.961 E15.10743 F3600
G0 X118.777 Y92.961 F7200
G1 X105.961 Y105.777 E15.71026 F3600
G0 X105.961 Y106.342 F7200
G1 X119.342 Y92.961 E16.33970 F3600
G0 X119.908 Y92.961 F7200
G1 X105.961 Y106.908 E16.99575 F3600
G0 X106.395 Y107.039 F7200
G1 X120.474 Y92.961 E17.65798 F3600
G0 X121.039 Y92.961 F7200
G1 X106.961 Y107.039 E18.32021 F3600
G0 X107.526 Y107.039 F7200
G1 X121.605 Y92.961 E18.98244 F3600
G0 X122.171 Y92.961 F7200
G1 X108.092 Y107.039 E19.64467 F3600
G0 X108.658 Y107.039 F7200
G1 X122.737 Y92.961 E20.30690 F3600
G0 X123.302 Y92.961 F7200
G1 X109.223 Y107.039 E20.96913 F3600
G0 X109.789 Y107.039 F7200
G1 X123.868 Y92.961 E21.63136 F3600
G0 X124.434 Y92.961 F7200
G1 X110.355 Y107.039 E22.29359 F3600
G0 X110.920 Y107.039 F7200
G1 X124.999 Y92.961 E22.95582 F3600
G0 X125.565 Y92.961 F7200
G1 X111.486 Y107.039 E23.61805 F3600
G0 X112.052 Y107.039 F7200
G1 X126.131 Y92.961 E24.28028 F3600
G0 X126.696 Y92.961 F7200
G1 X112.617 Y107.039 E24.94251 F3600
G0 X113.183 Y107.039 F7200
G1 X127.262 Y92.961 E25.60474 F3600
G0 X127.828 Y92.961 F7200
G1 X113.749 Y107.039 E26.26697 F3600
G0 X114.314 Y107.039 F7200
G1 X128.393 Y92.961 E26.92920 F3600
G0 X128.959 Y92.961 F7200
G1 X114.880 Y107.039 E27.59143 F3600
G0 X115.446 Y107.039 F7200
G1 X129.525 Y92.961 E28.25366 F3600
G0 X130.090 Y92.961 F7200
G1 X116.011 Y107.039 E28.91589 F3600
G0 X116.577 Y107.039 F7200
G1 X130.656 Y92.961 E29.57812 F3600
G0 X131.222 Y92.961 F7200
G1 X117.143 Y107.039 E30.24035 F3600
G0 X117.709 Y107.039 F7200
G1 X131.787 Y92.961 E30.90258 F3600
G0 X132.353 Y92.961 F7200
G1 X118.274 Y107.039 E31.56481 F3600
G0 X118.840 Y107.039 F7200
G1 X132.919 Y92.961 E32.22704 F3600
G0 X133.485 Y92.961 F7200
G1 X119.406 Y107.039 E32.88927 F3600
G0 X119.971 Y107.039 F7200
G1 X134.050 Y92.961 E33.55150 F3600
G0 X134.616 Y92.961 F7200
G1 X120.537 Y107.039 E34.21373 F3600
G0 X121.103 Y107.039 F7200
G1 X135.182 Y92.961 E34.87596 F3600
G0 X135.747 Y92.961 F7200
G1 X121.668 Y107.039 E35.53819 F3600
G0 X122.234 Y107.039 F7200
G1 X136.313 Y92.961 E36.20043 F3600
G0 X136.879 Y92.961 F7200
G1 X122.800 Y107.039 E36.86266 F3600
G0 X123.365 Y107.039 F7200
G1 X137.444 Y92.961 E37.52489 F3600
G0 X138.010 Y92.961 F7200
G1 X123.931 Y107.039 E38.18712 F3600
G0 X124.497 Y107.039 F7200
G1 X138.576 Y92.961 E38.84935 F3600
G0 X139.141 Y92.961 F7200
G1 X125.062 Y107.039 E39.51158 F3600
G0 X125.628 Y107.039 F7200
G1 X139.707 Y92.961 E40.17381 F3600
G0 X140.273 Y92.961 F7200
G1 X126.194 Y107.039 E40.83605 F3600
G0 X126.760 Y107.039 F7200
G1 X140.838 Y92.961 E41.49828 F3600
G0 X141.404 Y92.961 F7200
G1 X127.325 Y107.039 E42.16051 F3600
G0 X127.891 Y107.039 F7200
G1 X141.970 Y92.961 E42.82274 F3600
G0 X142.536 Y92.961 F7200
G1 X128.457 Y107.039 E43.48497 F3600
G0 X129.022 Y107.039 F7200
G1 X143.101 Y92.961 E44.14720 F3600
G0 X143.667 Y92.961 F7200
G1 X129.588 Y107.039 E44.80944 F3600
G0 X130.154 Y107.039 F7200
G1 X144.233 Y92.961 E45.47167 F3600
G0 X144.798 Y92.961 F7200
G1 X130.719 Y107.039 E46.13390 F3600
G0 X131.285 Y107.039 F7200
G1 X145.364 Y92.961 E46.79613 F3600
G0 X145.930 Y92.961 F7200
G1 X131.851 Y107.039 E47.45836 F3600
G0 X132.416 Y107.039 F7200
G1 X146.495 Y92.961 E48.12059 F3600
G0 X147.061 Y92.961 F7200
G1 X132.982 Y107.039 E48.78282 F3600
G0 X133.548 Y107.039 F7200
G1 X147.627 Y92.961 E49.44506 F3600
G0 X148.192 Y92.960 F7200
G1 X134.113 Y107.039 E50.10729 F3600
G0 X134.679 Y107.039 F7200
G1 X148.758 Y92.960 E50.76952 F3600
G0 X149.324 Y92.960 F7200
G1 X135.245 Y107.039 E51.43175 F3600
G0 X135.810 Y107.039 F7200
G1 X149.889 Y92.960 E52.09398 F3600
G0 X150.455 Y92.960 F7200
G1 X136.376 Y107.039 E52.75621 F3600
G0 X136.942 Y107.039 F7200
G1 X151.021 Y92.960 E53.41844 F3600
G0 X151.587 Y92.960 F7200
G1 X137.508 Y107.039 E54.08068 F3600
G0 X138.073 Y107.039 F7200
G1 X152.152 Y92.960 E54.74291 F3600
G0 X152.718 Y92.960 F7200
G1 X138.639 Y107.039 E55.40514 F3600
G0 X139.205 Y107.039 F7200
G1 X153.284 Y92.960 E56.06737 F3600
G0 X153.849 Y92.960 F7200
G1 X139.770 Y107.039 E56.72960 F3600
G0 X140.336 Y107.039 F7200
G1 X154.039 Y93.336 E57.37417 F3600
G0 X154.039 Y93.902 F7200
G1 X140.902 Y107.039 E57.99214 F3600
G0 X141.467 Y107.039 F7200
G1 X154.039 Y94.467 E58.58349 F3600
G0 X154.039 Y95.033 F7200
G1 X142.033 Y107.039 E59.14824 F3600
G0 X142.599 Y107.039 F7200
G1 X154.039 Y95.599 E59.68638 F3600
G0 X154.039 Y96.164 F7200
G1 X143.164 Y107.039 E60.19791 F3600
G0 X143.730 Y107.039 F7200
G1 X154.039 Y96.730 E60.68283 F3600
G0 X154.039 Y97.296 F7200
G1 X144.296 Y107.039 E61.14115 F3600
G0 X144.861 Y107.039 F7200
G1 X154.039 Y97.861 E61.57285 F3600
G0 X154.039 Y98.427 F7200
G1 X145.427 Y107.039 E61.97795 F3600
G0 X145.993 Y107.039 F7200
G1 X154.039 Y98.993 E62.35644 F3600
G0 X154.039 Y99.559 F7200
G1 X146.558 Y107.039 E62.70832 F3600
G0 X147.124 Y107.039 F7200
G1 X154.039 Y100.124 E63.03360 F3600
G0 X154.039 Y100.690 F7200
G1 X147.690 Y107.039 E63.33226 F3600
G0 X148.256 Y107.039 F7200
G1 X154.039 Y101.256 E63.60432 F3600
G0 X154.039 Y101.821 F7200
G1 X148.821 Y107.039 E63.84977 F3600
G0 X149.387 Y107.039 F7200
G1 X154.039 Y102.387 E64.06861 F3600
G0 X154.039 Y102.953 F7200
G1 X149.953 Y107.039 E64.26084 F3600
G0 X150.518 Y107.039 F7200
G1 X154.039 Y103.518 E64.42646 F3600
G0 X154.039 Y104.084 F7200
G1 X151.084 Y107.039 E64.56548 F3600
G0 X151.650 Y107.039 F7200
G1 X154.039 Y104.650 E64.67789 F3600
G0 X154.039 Y105.215 F7200
G1 X152.215 Y107.039 E64.76369 F3600
G0 X152.781 Y107.039 F7200
G1 X154.039 Y105.781 E64.82288 F3600
G0 X154.039 Y106.347 F7200
G1 X153.347 Y107.039 E64.85546 F3600
G0 X153.912 Y107.039 F7200
G1 X154.039 Y106.912 E64.86144 F3600
; ------------------------------------
; Layer #18
; ------------------------------------
G92 E0 ;reset extr
G0 F3000 E-1.00000
G0 F600 Z3.800
G0 X119.707 Y107.039 F7200
G0 F3000 E0.00000
;segType:HShell
G1 X105.961 Y93.293 E0.64660 F3600
G0 X105.416 Y92.780 F7200
;segType:Perimeter
G1 X105.260 Y92.200 E0.66655 F2160
G1 X154.800 Y92.200 E2.31423
G1 X154.800 Y107.800 E2.83306
G1 X105.200 Y107.800 E4.48274
G1 X105.200 Y92.260 E4.99958
G0 X105.973 Y92.467 F7200
G0 X106.300 Y92.600
;segType:Loop
G1 X154.400 Y92.600 E6.59936 F3600
G1 X154.400 Y107.400 E7.09159
G1 X105.600 Y107.400 E8.71465
G1 X105.600 Y92.600 E9.20688
G1 X106.100 Y92.600 E9.22351
G0 X106.194 Y92.961 F7200
;segType:HShell
G1 X120.273 Y107.039 E9.88574 F3600
G0 X120.838 Y107.039 F7200
G1 X106.760 Y92.961 E10.54797 F3600
G0 X107.325 Y92.961 F7200
G1 X121.404 Y107.039 E11.21020 F3600
G0 X121.970 Y107.039 F7200
G1 X107.891 Y92.961 E11.87243 F3600
G0 X108.457 Y92.961 F7200
G1 X122.536 Y107.039 E12.53466 F3600
G0 X123.101 Y107.039 F7200
G1 X109.022 Y92.961 E13.19689 F3600
G0 X109.588 Y92.961 F7200
G1 X123.667 Y107.039 E13.85912 F3600
G0 X124.233 Y107.039 F7200
G1 X110.154 Y92.961 E14.52135 F3600
G0 X110.719 Y92.961 F7200
G1 X124.798 Y107.039 E15.18358 F3600
G0 X125.364 Y107.039 F7200
G1 X111.285 Y92.961 E15.84581 F3600
G0 X111.851 Y92.961 F7200
G1 X125.930 Y107.039 E16.50804 F3600
G0 X126.495 Y107.039 F7200
G1 X112.416 Y92.961 E17.17027 F3600
G0 X112.982 Y92.961 F7200
G1 X127.061 Y107.039 E17.83250 F3600
G0 X127.627 Y107.039 F7200
G1 X113.548 Y92.961 E18.49473 F3600
G0 X114.113 Y92.961 F7200
G1 X128.192 Y107.039 E19.15696 F3600
G0 X128.758 Y107.039 F7200
G1 X114.679 Y92.961 E19.81919 F3600
G0 X115.245 Y92.961 F7200
G1 X129.324 Y107.039 E20.48142 F3600
G0 X129.889 Y107.039 F7200
G1 X115.810 Y92.961 E21.14365 F3600
G0 X116.376 Y92.961 F7200
G1 X130.455 Y107.039 E21.80588 F3600
G0 X131.021 Y107.039 F7200
G1 X116.942 Y92.961 E22.46811 F3600
G0 X117.508 Y92.961 F7200
G1 X131.586 Y107.039 E23.13034 F3600
G0 X132.152 Y107.039 F7200
G1 X118.073 Y92.961 E23.79257 F3600
G0 X118.639 Y92.961 F7200
G1 X132.718 Y107.039 E24.45480 F3600
G0 X133.284 Y107.039 F7200
G1 X119.205 Y92.961 E25.11703 F3600
G0 X119.770 Y92.961 F7200
G1 X133.849 Y107.039 E25.77926 F3600
G0 X134.415 Y107.039 F7200
G1 X120.336 Y92.961 E26.44149 F3600
G0 X120.902 Y92.961 F7200
G1 X134.981 Y107.039 E27.10372 F3600
G0 X135.546 Y107.039 F7200
G1 X121.467 Y92.961 E27.76595 F3600
G0 X122.033 Y92.961 F7200
G1 X136.112 Y107.039 E28.42818 F3600
G0 X136.678 Y107.039 F7200
G1 X122.599 Y92.961 E29.09041 F3600
G0 X123.164 Y92.961 F7200
G1 X137.243 Y107.039 E29.75264 F3600
G0 X137.809 Y107.039 F7200
G1 X123.730 Y92.961 E30.41486 F3600
G0 X124.296 Y92.961 F7200
G1 X138.375 Y107.039 E31.07709 F3600
G0 X138.940 Y107.039 F7200
G1 X124.861 Y92.961 E31.73932 F3600
G0 X125.427 Y92.961 F7200
G1 X139.506 Y107.039 E32.40156 F3600
G0 X140.072 Y107.039 F7200
G1 X125.993 Y92.961 E33.06379 F3600
G0 X126.559 Y92.961 F7200
G1 X140.637 Y107.039 E33.72602 F3600
G0 X141.203 Y107.039 F7200
G1 X127.124 Y92.961 E34.38825 F3600
G0 X127.690 Y92.961 F7200
G1 X141.769 Y107.039 E35.05048 F3600
G0 X142.335 Y107.039 F7200
G1 X128.256 Y92.961 E35.71271 F3600
G0 X128.821 Y92.961 F7200
G1 X142.900 Y107.039 E36.37494 F3600
G0 X143.466 Y107.039 F7200
G1 X129.387 Y92.961 E37.03718 F3600
G0 X129.953 Y92.961 F7200
G1 X144.032 Y107.039 E37.69941 F3600
G0 X144.597 Y107.039 F7200
G1 X130.518 Y92.961 E38.36164 F3600
G0 X131.084 Y92.961 F7200
G1 X145.163 Y107.039 E39.02387 F3600
G0 X145.729 Y107.039 F7200
G1 X131.650 Y92.961 E39.68610 F3600
G0 X132.215 Y92.961 F7200
G1 X146.294 Y107.039 E40.34833 F3600
G0 X146.860 Y107.039 F7200
G1 X132.781 Y92.961 E41.01056 F3600
G0 X133.347 Y92.961 F7200
G1 X147.426 Y107.039 E41.67280 F3600
G0 X147.991 Y107.039 F7200
G1 X133.912 Y92.961 E42.33503 F3600
G0 X134.478 Y92.961 F7200
G1 X148.557 Y107.039 E42.99726 F3600
G0 X149.123 Y107.039 F7200
G1 X135.044 Y92.961 E43.65949 F3600
G0 X135.609 Y92.961 F7200
G1 X149.688 Y107.039 E44.32172 F3600
G0 X150.254 Y107.039 F7200
G1 X136.175 Y92.961 E44.98395 F3600
G0 X136.741 Y92.961 F7200
G1 X150.820 Y107.039 E45.64619 F3600
G0 X151.385 Y107.039 F7200
G1 X137.307 Y92.961 E46.30842 F3600
G0 X137.872 Y92.961 F7200
G1 X151.951 Y107.039 E46.97065 F3600
G0 X152.517 Y107.039 F7200
G1 X138.438 Y92.961 E47.63288 F3600
G0 X139.004 Y92.961 F7200
G1 X153.083 Y107.039 E48.29511 F3600
G0 X153.648 Y107.039 F7200
G1 X139.569 Y92.961 E48.95734 F3600
G0 X140.135 Y92.961 F7200
G1 X154.039 Y106.865 E49.61137 F3600
G0 X154.039 Y106.299 F7200
G1 X140.701 Y92.961 E50.23879 F3600
G0 X141.266 Y92.961 F7200
G1 X154.039 Y105.734 E50.83960 F3600
G0 X154.039 Y105.168 F7200
G1 X141.832 Y92.961 E51.41380 F3600
G0 X142.398 Y92.961 F7200
G1 X154.039 Y104.602 E51.96139 F3600
G0 X154.039 Y104.037 F7200
G1 X142.963 Y92.961 E52.48238 F3600
G0 X143.529 Y92.961 F7200
G1 X154.039 Y103.471 E52.97676 F3600
G0 X154.039 Y102.905 F7200
G1 X144.095 Y92.961 E53.44453 F3600
G0 X144.660 Y92.961 F7200
G1 X154.039 Y102.340 E53.88569 F3600
G0 X154.039 Y101.774 F7200
G1 X145.226 Y92.961 E54.30024 F3600
G0 X145.792 Y92.961 F7200
G1 X154.039 Y101.208 E54.68819 F3600
G0 X154.039 Y100.643 F7200
G1 X146.357 Y92.961 E55.04952 F3600
G0 X146.923 Y92.961 F7200
G1 X154.039 Y100.077 E55.38425 F3600
G0 X154.039 Y99.511 F7200
G1 X147.489 Y92.961 E55.69237 F3600
G0 X148.055 Y92.961 F7200
G1 X154.039 Y98.945 E55.97388 F3600
G0 X154.039 Y98.380 F7200
G1 X148.620 Y92.961 E56.22879 F3600
G0 X149.186 Y92.961 F7200
G1 X154.039 Y97.814 E56.45709 F3600
G0 X154.039 Y97.248 F7200
G1 X149.752 Y92.961 E56.65877 F3600
G0 X150.317 Y92.961 F7200
G1 X154.039 Y96.683 E56.83385 F3600
G0 X154.039 Y96.117 F7200
G1 X150.883 Y92.961 E56.98233 F3600
G0 X151.449 Y92.961 F7200
G1 X154.039 Y95.551 E57.10419 F3600
G0 X154.039 Y94.986 F7200
G1 X152.014 Y92.961 E57.19945 F3600
G0 X152.580 Y92.961 F7200
G1 X154.039 Y94.420 E57.26810 F3600
G0 X154.039 Y93.854 F7200
G1 X153.146 Y92.961 E57.31013 F3600
G0 X153.711 Y92.961 F7200
G1 X154.039 Y93.289 E57.32556 F3600
G0 X119.141 Y107.039 F7200
G1 X105.961 Y93.859 E57.94555 F3600
G0 X105.961 Y94.424 F7200
G1 X118.576 Y107.039 E58.53893 F3600
G0 X118.010 Y107.039 F7200
G1 X105.961 Y94.990 E59.10570 F3600
G0 X105.961 Y95.556 F7200
G1 X117.444 Y107.039 E59.64587 F3600
G0 X116.879 Y107.039 F7200
G1 X105.961 Y96.121 E60.15943 F3600
G0 X105.961 Y96.687 F7200
G1 X116.313 Y107.039 E60.64637 F3600
G0 X115.747 Y107.039 F7200
G1 X105.961 Y97.253 E61.10671 F3600
G0 X105.961 Y97.818 F7200
G1 X115.182 Y107.039 E61.54044 F3600
G0 X114.616 Y107.039 F7200
G1 X105.961 Y98.384 E61.94757 F3600
G0 X105.961 Y98.950 F7200
G1 X114.050 Y107.039 E62.32808 F3600
G0 X113.485 Y107.039 F7200
G1 X105.961 Y99.515 E62.68199 F3600
G0 X105.961 Y100.081 F7200
G1 X112.919 Y107.039 E63.00929 F3600
G0 X112.353 Y107.039 F7200
G1 X105.961 Y100.647 E63.30998 F3600
G0 X105.961 Y101.213 F7200
G1 X111.788 Y107.039 E63.58406 F3600
G0 X111.222 Y107.039 F7200
G1 X105.961 Y101.778 E63.83154 F3600
G0 X105.961 Y102.344 F7200
G1 X110.656 Y107.039 E64.05240 F3600
G0 X110.090 Y107.039 F7200
G1 X105.961 Y102.910 E64.24666 F3600
G0 X105.961 Y103.475 F7200
G1 X109.525 Y107.039 E64.41431 F3600
G0 X108.959 Y107.039 F7200
G1 X105.961 Y104.041 E64.55535 F3600
G0 X105.961 Y104.607 F7200
G1 X108.393 Y107.039 E64.66979 F3600
G0 X107.828 Y107.039 F7200
G1 X105.961 Y105.172 E64.75762 F3600
G0 X105.961 Y105.738 F7200
G1 X107.262 Y107.039 E64.81883 F3600
G0 X106.696 Y107.039 F7200
G1 X105.961 Y106.304 E64.85344 F3600
G0 X105.961 Y106.869 F7200
G1 X106.131 Y107.039 E64.86145 F3600
; ------------------------------------
; Layer #19
; ------------------------------------
G92 E0 ;reset extr
G0 F3000 E-1.00000
G0 F600 Z4.000
G0 X106.068 Y107.400 F7200
G0 X108.657 Y92.600
G0 X108.594 Y92.960
G0 F3000 E0.00000
;segType:HShell
G1 X105.961 Y95.594 E0.12389 F3600
G0 X105.961 Y95.029 F7200
G1 X108.029 Y92.960 E0.22117 F3600
G0 X107.463 Y92.960 F7200
G1 X105.961 Y94.463 E0.29184 F3600
G0 X105.961 Y93.897 F7200
G1 X106.897 Y92.960 E0.33591 F3600
G0 X106.332 Y92.960 F7200
G1 X105.961 Y93.332 E0.35337 F3600
G0 X105.600 Y92.600 F7200
G0 X105.416 Y92.780
;segType:Perimeter
G1 X105.260 Y92.200 E0.37332 F2160
G1 X154.800 Y92.200 E2.02100
G1 X154.800 Y107.800 E2.53983
G1 X105.200 Y107.800 E4.18951
G1 X105.200 Y92.260 E4.70634
G0 X105.973 Y92.467 F7200
G0 X106.300 Y92.600
;segType:Loop
G1 X154.400 Y92.600 E6.30613 F3600
G1 X154.400 Y107.400 E6.79835
G1 X105.600 Y107.400 E8.42141
G1 X105.600 Y92.600 E8.91364
G1 X106.100 Y92.600 E8.93027
G0 F3000 E7.93027
G0 X153.912 Y107.039 F7200
G0 F3000 E8.93027
;segType:HShell
G1 X154.039 Y106.912 E8.93625 F3600
G0 X154.039 Y106.347 F7200
G1 X153.347 Y107.039 E8.96883 F3600
G0 X152.781 Y107.039 F7200
G1 X154.039 Y105.781 E9.02803 F3600
G0 X154.039 Y105.215 F7200
G1 X152.215 Y107.039 E9.11383 F3600
G0 X151.650 Y107.039 F7200
G1 X154.039 Y104.650 E9.22624 F3600
G0 X154.039 Y104.084 F7200
G1 X151.084 Y107.039 E9.36526 F3600
G0 X150.518 Y107.039 F7200
G1 X154.039 Y103.518 E9.53089 F3600
G0 X154.039 Y102.953 F7200
G1 X149.953 Y107.039 E9.72312 F3600
G0 X149.387 Y107.039 F7200
G1 X154.039 Y102.387 E9.94197 F3600
G0 X154.039 Y101.821 F7200
G1 X148.821 Y107.039 E10.18742 F3600
G0 X148.256 Y107.039 F7200
G1 X154.039 Y101.256 E10.45948 F3600
G0 X154.039 Y100.690 F7200
G1 X147.690 Y107.039 E10.75815 F3600
G0 X147.124 Y107.039 F7200
G1 X154.039 Y100.124 E11.08342 F3600
G0 X154.039 Y99.558 F7200
G1 X146.558 Y107.039 E11.43531 F3600
G0 X145.993 Y107.039 F7200
G1 X154.039 Y98.993 E11.81380 F3600
G0 X154.039 Y98.427 F7200
G1 X145.427 Y107.039 E12.21890 F3600
G0 X144.861 Y107.039 F7200
G1 X154.039 Y97.861 E12.65061 F3600
G0 X154.039 Y97.296 F7200
G1 X144.296 Y107.039 E13.10892 F3600
G0 X143.730 Y107.039 F7200
G1 X154.039 Y96.730 E13.59385 F3600
G0 X154.039 Y96.164 F7200
G1 X143.164 Y107.039 E14.10538 F3600
G0 X142.599 Y107.039 F7200
G1 X154.039 Y95.599 E14.64352 F3600
G0 X154.039 Y95.033 F7200
G1 X142.033 Y107.039 E15.20827 F3600
G0 X141.467 Y107.039 F7200
G1 X154.039 Y94.467 E15.79963 F3600
G0 X154.039 Y93.902 F7200
G1 X140.902 Y107.039 E16.41759 F3600
G0 X140.336 Y107.039 F7200
G1 X154.039 Y93.336 E17.06216 F3600
G0 X153.849 Y92.961 F7200
G1 X139.770 Y107.039 E17.72439 F3600
G0 X139.205 Y107.039 F7200
G1 X153.283 Y92.961 E18.38662 F3600
G0 X152.718 Y92.961 F7200
G1 X138.639 Y107.039 E19.04885 F3600
G0 X138.073 Y107.039 F7200
G1 X152.152 Y92.961 E19.71108 F3600
G0 X151.586 Y92.961 F7200
G1 X137.508 Y107.039 E20.37331 F3600
G0 X136.942 Y107.039 F7200
G1 X151.021 Y92.961 E21.03554 F3600
G0 X150.455 Y92.961 F7200
G1 X136.376 Y107.039 E21.69777 F3600
G0 X135.810 Y107.039 F7200
G1 X149.889 Y92.961 E22.36000 F3600
G0 X149.324 Y92.961 F7200
G1 X135.245 Y107.039 E23.02223 F3600
G0 X134.679 Y107.039 F7200
G1 X148.758 Y92.961 E23.68446 F3600
G0 X148.192 Y92.961 F7200
G1 X134.113 Y107.039 E24.34669 F3600
G0 X133.548 Y107.039 F7200
G1 X147.627 Y92.961 E25.00892 F3600
G0 X147.061 Y92.961 F7200
G1 X132.982 Y107.039 E25.67115 F3600
G0 X132.416 Y107.039 F7200
G1 X146.495 Y92.961 E26.33338 F3600
G0 X145.930 Y92.961 F7200
G1 X131.851 Y107.039 E26.99561 F3600
G0 X131.285 Y107.039 F7200
G1 X145.364 Y92.961 E27.65784 F3600
G0 X144.798 Y92.961 F7200
G1 X130.719 Y107.039 E28.32007 F3600
G0 X130.154 Y107.039 F7200
G1 X144.233 Y92.961 E28.98230 F3600
G0 X143.667 Y92.961 F7200
G1 X129.588 Y107.039 E29.64453 F3600
G0 X129.022 Y107.039 F7200
G1 X143.101 Y92.961 E30.30676 F3600
G0 X142.535 Y92.961 F7200
G1 X128.457 Y107.039 E30.96899 F3600
G0 X127.891 Y107.039 F7200
G1 X141.970 Y92.961 E31.63122 F3600
G0 X141.404 Y92.961 F7200
G1 X127.325 Y107.039 E32.29345 F3600
G0 X126.759 Y107.039 F7200
G1 X140.838 Y92.961 E32.95568 F3600
G0 X140.273 Y92.961 F7200
G1 X126.194 Y107.039 E33.61791 F3600
G0 X125.628 Y107.039 F7200
G1 X139.707 Y92.961 E34.28014 F3600
G0 X139.141 Y92.961 F7200
G1 X125.062 Y107.039 E34.94237 F3600
G0 X124.497 Y107.039 F7200
G1 X138.576 Y92.960 E35.60460 F3600
G0 X138.010 Y92.960 F7200
G1 X123.931 Y107.039 E36.26684 F3600
G0 X123.365 Y107.039 F7200
G1 X137.444 Y92.960 E36.92907 F3600
G0 X136.879 Y92.960 F7200
G1 X122.800 Y107.039 E37.59130 F3600
G0 X122.234 Y107.039 F7200
G1 X136.313 Y92.960 E38.25353 F3600
G0 X135.747 Y92.960 F7200
G1 X121.668 Y107.039 E38.91576 F3600
G0 X121.103 Y107.039 F7200
G1 X135.182 Y92.960 E39.57799 F3600
G0 X134.616 Y92.960 F7200
G1 X120.537 Y107.039 E40.24022 F3600
G0 X119.971 Y107.039 F7200
G1 X134.050 Y92.960 E40.90246 F3600
G0 X133.485 Y92.960 F7200
G1 X119.406 Y107.039 E41.56469 F3600
G0 X118.840 Y107.039 F7200
G1 X132.919 Y92.960 E42.22692 F3600
G0 X132.353 Y92.960 F7200
G1 X118.274 Y107.039 E42.88915 F3600
G0 X117.709 Y107.039 F7200
G1 X131.787 Y92.960 E43.55138 F3600
G0 X131.222 Y92.960 F7200
G1 X117.143 Y107.039 E44.21361 F3600
G0 X116.577 Y107.039 F7200
G1 X130.656 Y92.960 E44.87585 F3600
G0 X130.090 Y92.960 F7200
G1 X116.011 Y107.039 E45.53808 F3600
G0 X115.446 Y107.039 F7200
G1 X129.525 Y92.960 E46.20031 F3600
G0 X128.959 Y92.960 F7200
G1 X114.880 Y107.039 E46.86254 F3600
G0 X114.314 Y107.039 F7200
G1 X128.393 Y92.960 E47.52477 F3600
G0 X127.828 Y92.960 F7200
G1 X113.749 Y107.039 E48.18700 F3600
G0 X113.183 Y107.039 F7200
G1 X127.262 Y92.960 E48.84923 F3600
G0 X126.696 Y92.960 F7200
G1 X112.617 Y107.039 E49.51147 F3600
G0 X112.052 Y107.039 F7200
G1 X126.131 Y92.960 E50.17370 F3600
G0 X125.565 Y92.960 F7200
G1 X111.486 Y107.039 E50.83593 F3600
G0 X110.920 Y107.039 F7200
G1 X124.999 Y92.960 E51.49816 F3600
G0 X124.434 Y92.960 F7200
G1 X110.355 Y107.039 E52.16039 F3600
G0 X109.789 Y107.039 F7200
G1 X123.868 Y92.960 E52.82262 F3600
G0 X123.302 Y92.960 F7200
G1 X109.223 Y107.039 E53.48485 F3600
G0 X108.658 Y107.039 F7200
G1 X122.737 Y92.960 E54.14709 F3600
G0 X122.171 Y92.960 F7200
G1 X108.092 Y107.039 E54.80932 F3600
G0 X107.526 Y107.039 F7200
G1 X121.605 Y92.960 E55.47155 F3600
G0 X121.039 Y92.960 F7200
G1 X106.961 Y107.039 E56.13378 F3600
G0 X106.395 Y107.039 F7200
G1 X120.474 Y92.960 E56.79601 F3600
G0 X119.908 Y92.960 F7200
G1 X105.961 Y106.908 E57.45206 F3600
G0 X105.961 Y106.342 F7200
G1 X119.342 Y92.960 E58.08151 F3600
G0 X118.777 Y92.960 F7200
G1 X105.961 Y105.777 E58.68434 F3600
G0 X105.961 Y105.211 F7200
G1 X118.211 Y92.960 E59.26057 F3600
G0 X117.645 Y92.960 F7200
G1 X105.961 Y104.645 E59.81019 F3600
G0 X105.961 Y104.080 F7200
G1 X117.080 Y92.960 E60.33320 F3600
G0 X116.514 Y92.960 F7200
G1 X105.961 Y103.514 E60.82960 F3600
G0 X105.961 Y102.948 F7200
G1 X115.948 Y92.960 E61.29940 F3600
G0 X115.383 Y92.960 F7200
G1 X105.961 Y102.383 E61.74258 F3600
G0 X105.961 Y101.817 F7200
G1 X114.817 Y92.960 E62.15916 F3600
G0 X114.251 Y92.960 F7200
G1 X105.961 Y101.251 E62.54913 F3600
G0 X105.961 Y100.686 F7200
G1 X113.686 Y92.960 E62.91249 F3600
G0 X113.120 Y92.960 F7200
G1 X105.961 Y100.120 E63.24925 F3600
G0 X105.961 Y99.554 F7200
G1 X112.554 Y92.960 E63.55939 F3600
G0 X111.989 Y92.960 F7200
G1 X105.961 Y98.988 E63.84293 F3600
G0 X105.961 Y98.423 F7200
G1 X111.423 Y92.960 E64.09986 F3600
G0 X110.857 Y92.960 F7200
G1 X105.961 Y97.857 E64.33019 F3600
G0 X105.961 Y97.291 F7200
G1 X110.291 Y92.960 E64.53390 F3600
G0 X109.726 Y92.960 F7200
G1 X105.961 Y96.726 E64.71101 F3600
G0 X105.961 Y96.160 F7200
G1 X109.160 Y92.960 E64.86151 F3600
; ------------------------------------
; Layer #20
; ------------------------------------
G92 E0 ;reset extr
G0 F3000 E-1.00000
G0 F600 Z4.200
G0 X144.829 Y98.679 F7200
G0 X144.948 Y98.272
G0 X145.624 Y98.372
G0 X145.294 Y98.323
G0 F3000 E0.00000
;segType:Loop
G1 X145.263 Y98.412 E0.00241 F2005
G1 X145.283 Y98.343 E0.00410
G1 X145.261 Y98.457 E0.00704
G1 X145.238 Y98.571 E0.01018
G1 X145.215 Y98.686 E0.01352
G1 X145.202 Y98.800 E0.01700
G1 X145.196 Y98.914 E0.02051
G1 X145.190 Y99.029 E0.02408
G1 X145.184 Y99.143 E0.02770
G1 X145.178 Y99.257 E0.03139
G1 X145.183 Y99.371 E0.03502
G1 X145.190 Y99.486 E0.03859
G1 X145.196 Y99.600 E0.04211
G1 X145.202 Y99.714 E0.04558
G1 X145.215 Y99.829 E0.04885
G1 X145.238 Y99.943 E0.05198
G1 X145.260 Y100.057 E0.05490
G1 X145.283 Y100.171 E0.05763
G0 X145.262 Y100.093 F7200
G0 X145.303 Y100.213
G1 X145.327 Y100.286 E0.05900 F2005
G0 X145.283 Y100.171 F7200
G0 X145.215 Y99.829
G0 X145.202 Y99.714
G0 X145.183 Y99.371
G0 X145.178 Y99.257
G0 X145.202 Y98.800
G0 X145.215 Y98.686
G0 X145.283 Y98.343
G1 X145.291 Y98.322 E0.05907 F2005
G0 F3000 E-0.94093
G0 X144.891 Y98.467 F7200
G0 X145.657 Y98.189
G0 X145.718 Y97.947
G0 X145.819 Y97.771
G0 X145.805 Y97.629
G0 X145.891 Y97.585
G0 X145.974 Y97.539
G0 X146.240 Y97.489
G0 X146.331 Y97.476
G0 X146.423 Y97.480
G0 X146.514 Y97.493
G0 X146.810 Y97.575
G0 X146.896 Y97.619
G0 X146.887 Y97.742
G0 X147.172 Y97.639
G0 X146.858 Y97.521
G0 X146.933 Y97.726
G0 F3000 E0.05907
;segType:Perimeter
G1 X146.996 Y97.989 E0.06806 F1203
G1 X147.061 Y98.257 E0.07726
G1 X147.104 Y98.698 E0.09199
G1 X147.118 Y99.263 E0.11079
G1 X147.104 Y99.819 E0.12928
G1 X147.062 Y100.253 E0.14377
G1 X146.984 Y100.576 E0.15482
G1 X146.948 Y100.841 E0.16815
G1 X146.872 Y100.894 E0.17241
G1 X146.788 Y100.939 E0.17657
G0 X146.514 Y101.010 F7200
G0 X146.423 Y101.024
G0 X146.331 Y101.031
G0 X146.240 Y101.017
G1 X145.906 Y100.936 E0.19210 F1203
G1 X145.823 Y100.890 E0.19662
G1 X145.828 Y100.756 E0.20109
G1 X145.717 Y100.564 E0.20847
G1 X145.633 Y100.236 E0.21971
G1 X145.587 Y99.806 E0.23410
G1 X145.571 Y99.263 E0.25217
G1 X145.587 Y98.716 E0.27039
G1 X145.634 Y98.280 E0.28496
G1 X145.718 Y97.947 E0.29637
G1 X145.819 Y97.771 E0.30311
G1 X145.805 Y97.629 E0.30985
G1 X145.891 Y97.585 E0.31417
G1 X145.974 Y97.539 E0.31823
G0 X146.240 Y97.489 F7200
G0 X146.331 Y97.476
G0 X146.423 Y97.480
G0 X146.514 Y97.493
G1 X146.810 Y97.575 E0.33190 F1203
G1 X146.896 Y97.619 E0.33636
G1 X146.885 Y97.759 E0.34103
G1 X146.953 Y97.878 E0.34558
G0 X147.345 Y98.575 F7200
G0 F3000 E-0.65442
G0 X147.429 Y98.411 F7200
G0 F3000 E0.34558
;segType:Loop
G1 X147.389 Y98.290 E0.34819 F2005
G0 X147.368 Y98.229 F7200
G1 X147.411 Y98.343 E0.35102 F2005
G1 X147.432 Y98.457 E0.35393
G1 X147.454 Y98.571 E0.35704
G1 X147.476 Y98.686 E0.36035
G1 X147.488 Y98.800 E0.36382
G1 X147.494 Y98.914 E0.36733
G1 X147.500 Y99.029 E0.37090
G1 X147.506 Y99.143 E0.37452
G1 X147.512 Y99.257 E0.37821
G1 X147.506 Y99.371 E0.38183
G1 X147.500 Y99.486 E0.38540
G1 X147.494 Y99.600 E0.38892
G1 X147.489 Y99.714 E0.39237
G1 X147.476 Y99.829 E0.39565
G0 X147.455 Y99.943 F7200
G0 X147.410 Y100.171
G1 X147.367 Y100.286 E0.39783 F2005
G1 X147.391 Y100.216 E0.39934
G1 X147.432 Y100.096 E0.40258
G1 X147.410 Y100.171 E0.40440
G1 X147.432 Y100.057 E0.40730
G1 X147.455 Y99.943 E0.41041
G0 X147.476 Y99.829 F7200
G0 X147.489 Y99.714
G0 X147.506 Y99.371
G0 X147.512 Y99.257
G1 X147.498 Y98.999 E0.41661 F2005
G0 F3000 E-0.58339
G0 X147.893 Y99.091 F7200
G0 X147.109 Y98.909
G0 X147.104 Y98.698
G0 X147.061 Y98.257
G0 X146.982 Y97.930
G0 X146.885 Y97.759
G0 X146.896 Y97.619
G0 X146.810 Y97.575
G0 X146.514 Y97.493
G0 X146.423 Y97.480
G0 X146.331 Y97.476
G0 X146.240 Y97.489
G0 X145.974 Y97.539
G0 X145.891 Y97.585
G0 X145.805 Y97.629
G0 X145.819 Y97.771
G0 X145.718 Y97.947
G0 X145.634 Y98.280
G0 X145.603 Y98.559
G0 X144.911 Y98.398
G0 X145.040 Y98.428
G0 F3000 E0.41661
;segType:Perimeter
G1 X145.221 Y97.856 E0.43657 F1203
G1 X145.467 Y97.663 E0.44696
G1 X145.861 Y97.520 E0.46093
G0 X145.966 Y97.511 F7200
G0 X146.057 Y97.521
G0 X146.149 Y97.485
G1 X146.240 Y97.489 E0.46406 F1203
G1 X146.331 Y97.476 E0.46715
G1 X146.423 Y97.480 E0.47025
G1 X146.514 Y97.493 E0.47344
G0 X146.606 Y97.500 F7200
G0 X146.697 Y97.478
G0 X146.789 Y97.538
G1 X146.858 Y97.521 E0.47583 F1203
G1 X147.240 Y97.665 E0.48939
G1 X147.525 Y97.896 E0.50162
G1 X147.732 Y98.231 E0.51468
G1 X147.862 Y98.685 E0.53040
G1 X147.907 Y99.263 E0.54969
G1 X147.861 Y99.838 E0.56887
G1 X147.730 Y100.287 E0.58443
G1 X147.521 Y100.615 E0.59736
G1 X147.230 Y100.844 E0.60967
G1 X147.063 Y100.905 E0.61560
G1 X146.789 Y100.968 E0.62606
G1 X146.697 Y101.027 E0.62920
G1 X146.606 Y101.004 E0.63241
G1 X146.514 Y101.010 E0.63559
G1 X146.423 Y101.024 E0.63872
G1 X146.331 Y101.031 E0.64184
G1 X146.240 Y101.017 E0.64505
G1 X146.149 Y101.021 E0.64803
G1 X146.057 Y100.986 E0.65164
G1 X145.966 Y100.997 E0.65473
G1 X145.833 Y100.985 E0.65917
G1 X145.445 Y100.839 E0.67295
G1 X145.160 Y100.602 E0.68525
G1 X144.956 Y100.268 E0.69830
G1 X144.827 Y99.822 E0.71372
G1 X144.783 Y99.263 E0.73238
G1 X144.829 Y98.679 E0.75185
G1 X144.962 Y98.224 E0.76762
G1 X145.141 Y97.944 E0.77869
G0 X145.624 Y97.738 F7200
G0 F3000 E-0.22131
G0 X145.408 Y97.709 F7200
G0 X145.818 Y97.764
G0 X145.805 Y97.629
G0 X145.891 Y97.585
G0 X145.974 Y97.539
G0 X146.240 Y97.489
G0 X146.331 Y97.476
G0 X146.423 Y97.480
G0 X146.514 Y97.493
G0 X146.810 Y97.575
G0 X146.896 Y97.619
G0 X146.885 Y97.759
G0 X146.977 Y97.921
G0 X147.592 Y98.005
G0 X147.732 Y98.231
G0 X147.862 Y98.685
G0 X150.286 Y98.437
G0 X150.293 Y98.430
G0 X150.296 Y98.430
G0 X150.400 Y98.357
G0 X150.542 Y98.404
G0 F3000 E0.77869
;segType:Loop
G1 X150.400 Y98.357 E0.78429 F1983
G1 X150.286 Y98.437 E0.78836
G1 X150.526 Y98.229 E0.79366
G1 X150.525 Y98.114 E0.79830
G1 X150.524 Y98.000 E0.80211
G1 X150.523 Y97.886 E0.80508
G1 X150.524 Y97.902 E0.80539
G1 X150.525 Y98.063 E0.80854
G1 X150.499 Y98.250 E0.81422
G1 X150.598 Y98.313 E0.81964
G1 X150.637 Y98.436 E0.82419
G0 X152.143 Y101.939 F7200
G0 X152.208 Y102.037
G1 X152.247 Y102.159 E0.82850 F1983
G1 X152.345 Y102.223 E0.83266
G1 X152.343 Y102.222 E0.83271
G1 X152.229 Y102.173 E0.83584
G1 X152.000 Y102.173 E0.84344
G1 X152.143 Y101.939 E0.85255
G1 X152.095 Y101.826 E0.85712
G1 X152.046 Y101.713 E0.86168
G1 X151.998 Y101.600 E0.86625
G1 X151.949 Y101.487 E0.87082
G1 X151.900 Y101.374 E0.87538
G1 X151.852 Y101.261 E0.87995
G1 X151.803 Y101.148 E0.88452
G1 X151.755 Y101.035 E0.88910
G1 X151.706 Y100.922 E0.89367
G1 X151.657 Y100.809 E0.89824
G1 X151.609 Y100.696 E0.90282
G1 X151.560 Y100.583 E0.90739
G1 X151.512 Y100.470 E0.91197
G1 X151.463 Y100.357 E0.91655
G1 X151.414 Y100.244 E0.92113
G1 X151.366 Y100.131 E0.92571
G1 X151.317 Y100.018 E0.93029
G1 X151.269 Y99.905 E0.93487
G1 X151.220 Y99.792 E0.93946
G1 X151.171 Y99.679 E0.94404
G1 X151.123 Y99.566 E0.94863
G1 X151.074 Y99.453 E0.95322
G1 X151.026 Y99.340 E0.95781
G1 X150.977 Y99.227 E0.96240
G1 X150.928 Y99.114 E0.96699
G1 X150.880 Y99.001 E0.97158
G1 X150.831 Y98.888 E0.97617
G1 X150.783 Y98.775 E0.98077
G1 X150.734 Y98.662 E0.98536
G1 X150.685 Y98.549 E0.98996
G0 X150.685 Y98.549 F7200
G0 X150.637 Y98.436
G0 X150.598 Y98.313
G0 X150.499 Y98.250
G0 X150.525 Y98.063
G0 X150.524 Y97.902
G0 X150.523 Y97.886
G0 X150.524 Y98.000
G0 X150.525 Y98.114
G0 X150.526 Y98.229
G0 X150.286 Y98.437
G0 X150.400 Y98.357
G0 X150.544 Y98.405
G0 X150.442 Y98.301
G0 X150.342 Y98.199
;segType:Perimeter
G1 X150.442 Y97.406 E1.01657 F1190
G1 X150.657 Y97.406 E1.02370
G1 X152.776 Y102.341 E1.20234
G1 X153.006 Y102.573 E1.21317
G1 X153.097 Y102.584 E1.21606
G1 X153.189 Y102.595 E1.21878
G1 X153.280 Y102.606 E1.22132
G1 X153.371 Y102.618 E1.22370
G0 X153.006 Y102.573 F7200
G1 X152.914 Y102.598 E1.22645 F1190
G1 X152.823 Y102.573 E1.22961
G1 X151.726 Y102.573 E1.26610
G1 X151.634 Y102.574 E1.26913
G1 X151.543 Y102.582 E1.27204
G1 X151.451 Y102.591 E1.27481
G1 X151.360 Y102.600 E1.27745
G1 X151.269 Y102.609 E1.27995
G1 X151.177 Y102.618 E1.28232
G1 X151.086 Y102.626 E1.28456
G0 X151.634 Y102.574 F7200
G1 X151.783 Y102.171 E1.29883 F1190
G1 X150.304 Y98.736 E1.42320
G1 X149.838 Y98.846 E1.44230
G1 X149.801 Y98.937 E1.44624
G1 X149.764 Y99.029 E1.45018
G1 X149.727 Y99.120 E1.45413
G1 X149.690 Y99.211 E1.45808
G1 X149.652 Y99.303 E1.46203
G1 X149.615 Y99.394 E1.46599
G1 X149.578 Y99.486 E1.46995
G1 X149.541 Y99.577 E1.47392
G1 X149.504 Y99.669 E1.47789
G1 X149.467 Y99.760 E1.48187
G1 X149.430 Y99.851 E1.48585
G1 X149.393 Y99.943 E1.48984
G1 X149.356 Y100.034 E1.49383
G1 X149.319 Y100.126 E1.49782
G1 X149.282 Y100.217 E1.50182
G1 X149.245 Y100.309 E1.50582
G1 X149.208 Y100.400 E1.50983
G1 X149.171 Y100.491 E1.51384
G1 X149.134 Y100.583 E1.51785
G1 X149.097 Y100.674 E1.52187
G1 X149.060 Y100.766 E1.52590
G1 X149.023 Y100.857 E1.52993
G1 X148.986 Y100.949 E1.53396
G1 X148.949 Y101.040 E1.53799
G1 X148.912 Y101.131 E1.54204
G1 X148.875 Y101.223 E1.54608
G1 X148.838 Y101.314 E1.55013
G1 X148.801 Y101.406 E1.55418
G1 X148.764 Y101.497 E1.55824
G1 X148.727 Y101.589 E1.56230
G1 X148.690 Y101.680 E1.56637
G1 X148.653 Y101.771 E1.57044
G1 X148.616 Y101.863 E1.57452
G1 X148.579 Y101.954 E1.57860
G1 X148.541 Y102.046 E1.58268
G1 X148.504 Y102.137 E1.58677
G1 X148.467 Y102.229 E1.59086
G1 X148.430 Y102.320 E1.59496
G1 X148.709 Y102.575 E1.60737
G1 X148.800 Y102.584 E1.61025
G1 X148.891 Y102.593 E1.61300
G1 X148.983 Y102.602 E1.61560
G1 X149.074 Y102.611 E1.61807
G1 X149.166 Y102.620 E1.62040
G0 X148.709 Y102.575 F7200
G1 X148.617 Y102.573 E1.62344 F1190
G1 X148.343 Y102.573 E1.63257
G1 X148.251 Y102.588 E1.63542
G1 X148.160 Y102.649 E1.63768
G1 X148.069 Y102.580 E1.64135
G1 X147.977 Y102.590 E1.64415
G1 X147.886 Y102.599 E1.64680
G1 X147.794 Y102.609 E1.64930
G1 X147.703 Y102.619 E1.65166
G0 X148.069 Y102.580 F7200
G0 X148.430 Y102.320
G0 X149.838 Y98.846
G1 X149.832 Y98.754 E1.65471 F1190
G1 X150.360 Y97.461 E1.70115
G0 X150.529 Y97.507 F7200
G0 F3000 E0.70115
G0 X150.670 Y97.437 F7200
G0 X150.294 Y97.623
G0 X149.832 Y98.754
G0 X149.838 Y98.846
G0 X148.430 Y102.320
G0 X148.069 Y102.580
G0 X147.703 Y102.619
G0 X144.229 Y100.881
G0 X143.771 Y100.941
G0 X143.508 Y101.003
G0 X143.364 Y101.275
G0 X142.556 Y101.025
G0 X142.491 Y100.962
G0 X142.760 Y101.223
G0 X143.066 Y101.183
G0 F3000 E1.70115
;segType:Loop
G1 X143.062 Y101.200 E1.70146 F1200
G0 X143.090 Y101.087 F7200
G0 X143.122 Y100.958
G0 X143.154 Y100.828
G1 X143.139 Y100.857 E1.70243 F1200
G1 X143.143 Y100.743 E1.70592
G0 X143.146 Y100.629 F7200
G0 X143.146 Y98.343
G0 X143.142 Y98.229
G0 X143.126 Y98.114
G0 X143.096 Y98.000
G1 X143.112 Y98.041 E1.70728 F1200
G1 X143.058 Y97.933 E1.71033
G1 X142.993 Y97.836 E1.71233
G1 X143.040 Y97.886 E1.71392
G1 X143.096 Y98.000 E1.71771
G1 X143.126 Y98.114 E1.72143
G1 X143.142 Y98.229 E1.72502
G1 X143.146 Y98.343 E1.72857
G1 X143.146 Y100.629 E1.79951
G0 X143.143 Y100.743 F7200
G0 X143.139 Y100.857
G1 X143.118 Y100.971 E1.80258 F1200
G1 X143.114 Y100.989 E1.80303
G0 X143.122 Y100.958 F7200
G0 X143.154 Y100.828
G0 X143.147 Y100.841
G0 X143.120 Y100.963
G0 X143.118 Y100.971
G0 X143.090 Y101.086
G0 X143.062 Y101.200
G0 X142.940 Y101.761
;segType:Perimeter
G1 X142.760 Y101.809 E1.80925 F720
G1 X142.760 Y101.223 E1.82875
G1 X142.491 Y100.962 E1.84189
G1 X141.760 Y100.962 E1.86757
G0 X142.491 Y100.962 F7200
G1 X142.760 Y100.674 E1.88065 F720
G1 X142.760 Y98.290 E1.95995
G1 X142.701 Y97.928 E1.97215
G1 X142.533 Y97.714 E1.98118
G1 X142.309 Y97.556 E1.99249
G1 X142.217 Y97.549 E1.99598
G1 X142.126 Y97.554 E1.99936
G1 X142.034 Y97.575 E2.00267
G1 X141.943 Y97.598 E2.00583
G1 X141.851 Y97.620 E2.00882
G1 X141.760 Y97.642 E2.01163
G1 X141.669 Y97.665 E2.01428
G0 X142.034 Y97.575 F7200
G0 X142.126 Y97.554
G0 X142.217 Y97.549
G0 X142.309 Y97.556
G1 X142.400 Y97.515 E2.01792 F720
G1 X142.491 Y97.552 E2.02230
G1 X142.600 Y97.471 E2.02682
G1 X142.894 Y97.495 E2.03664
G1 X143.130 Y97.564 E2.04480
G1 X143.306 Y97.672 E2.05168
G1 X143.429 Y97.814 E2.05792
G1 X143.505 Y97.996 E2.06449
G1 X143.533 Y98.245 E2.07281
G1 X143.533 Y100.674 E2.15361
G1 X143.771 Y100.941 E2.16496
G1 X143.863 Y100.929 E2.16769
G1 X143.954 Y100.917 E2.17025
G1 X144.046 Y100.905 E2.17261
G1 X144.137 Y100.893 E2.17479
G1 X144.229 Y100.881 E2.17678
G0 X143.771 Y100.941 F7200
G1 X143.508 Y101.003 E2.18578 F720
G1 X143.049 Y101.869 E2.21840
G1 X142.820 Y101.869 E2.22601
G0 X143.027 Y101.096 F7200
G0 F3000 E1.22601
G0 X143.478 Y101.059 F7200
G0 X142.660 Y101.126
G0 X142.491 Y100.962
G0 X141.760 Y100.962
G0 X135.909 Y102.962
G0 X135.817 Y102.952
G0 X135.726 Y102.941
G0 X135.634 Y102.930
G0 X135.543 Y102.919
G0 X135.324 Y102.686
G0 X135.324 Y101.712
G0 X134.554 Y101.802
G0 X134.939 Y101.757
G0 F3000 E2.22601
;segType:Loop
G1 X134.939 Y101.771 E2.22645 F2763
G1 X134.939 Y101.886 E2.22996
G1 X134.939 Y102.000 E2.23348
G1 X134.939 Y102.114 E2.23700
G1 X134.939 Y102.229 E2.24052
G1 X134.939 Y102.343 E2.24405
G1 X134.938 Y102.457 E2.24757
G1 X134.938 Y102.571 E2.25110
G1 X134.938 Y102.686 E2.25464
G0 X134.940 Y101.543 F7200
G0 X134.941 Y101.429
G0 X134.961 Y100.857
G0 X134.938 Y100.743
G0 X134.938 Y97.886
G1 X134.938 Y100.743 E2.34332 F2763
G1 X134.961 Y100.857 E2.34694
G1 X134.957 Y100.971 E2.35004
G1 X134.953 Y101.086 E2.35322
G1 X134.949 Y101.200 E2.35648
G1 X134.945 Y101.314 E2.35981
G1 X134.941 Y101.429 E2.36323
G1 X134.940 Y101.543 E2.36671
G0 X135.324 Y102.181 F7200
G0 X134.590 Y100.962
G0 X134.591 Y100.949
G0 X134.579 Y100.945
G0 X134.496 Y100.806
;segType:Perimeter
G1 X134.408 Y100.843 E2.36986 F1657
G1 X134.080 Y100.911 E2.37939
G1 X133.989 Y100.930 E2.38216
G1 X133.897 Y100.950 E2.38505
G1 X133.806 Y100.970 E2.38805
G1 X133.714 Y100.992 E2.39124
G1 X133.623 Y100.990 E2.39452
G1 X133.531 Y100.988 E2.39797
G0 X133.230 Y100.941 F7200
G1 X133.210 Y100.831 E2.40168 F1657
G1 X133.133 Y100.786 E2.40465
G1 X132.942 Y100.538 E2.41505
G1 X132.823 Y100.218 E2.42642
G1 X132.757 Y99.824 E2.43970
G1 X132.736 Y99.352 E2.45543
G1 X132.758 Y98.801 E2.47377
G1 X132.827 Y98.350 E2.48895
G1 X132.949 Y97.992 E2.50151
G1 X133.122 Y97.746 E2.51151
G1 X133.125 Y97.620 E2.51763
G1 X133.210 Y97.576 E2.52214
G1 X133.531 Y97.503 E2.53436
G1 X133.623 Y97.490 E2.53772
G1 X133.714 Y97.485 E2.54090
G1 X133.806 Y97.490 E2.54407
G1 X133.897 Y97.494 E2.54722
G1 X133.989 Y97.499 E2.55036
G1 X134.080 Y97.509 E2.55357
G1 X134.171 Y97.521 E2.55680
G1 X134.263 Y97.535 E2.56003
G1 X134.551 Y97.840 E2.57400
G1 X134.551 Y100.723 E2.66989
G0 F3000 E1.66989
G0 X134.551 Y100.783 F7200
G0 X134.408 Y100.843
G0 X134.080 Y100.911
G0 X133.989 Y100.930
G0 X133.897 Y100.950
G0 X133.806 Y100.970
G0 X133.714 Y100.992
G0 X133.623 Y100.990
G0 X133.531 Y100.988
G0 X133.230 Y100.941
G0 X133.210 Y100.831
G0 X133.133 Y100.786
G0 X132.942 Y100.538
G0 X132.915 Y100.465
G0 X132.099 Y100.336
G0 X132.102 Y100.348
G0 X132.282 Y100.655
G0 X132.530 Y100.404
G0 F3000 E2.66989
;segType:Loop
G0 X132.527 Y100.400 F7200
G0 X132.473 Y100.286
G1 X132.439 Y100.171 E2.67328 F2763
G1 X132.415 Y100.057 E2.67671
G1 X132.390 Y99.943 E2.68024
G1 X132.370 Y99.829 E2.68386
G1 X132.363 Y99.714 E2.68745
G1 X132.356 Y99.600 E2.69107
G1 X132.350 Y99.486 E2.69472
G1 X132.343 Y99.371 E2.69840
G1 X132.349 Y99.257 E2.70203
G1 X132.356 Y99.143 E2.70562
G1 X132.363 Y99.029 E2.70914
G1 X132.371 Y98.914 E2.71262
G1 X132.385 Y98.800 E2.71593
G1 X132.410 Y98.686 E2.71907
G1 X132.437 Y98.571 E2.72205
G1 X132.463 Y98.457 E2.72484
G1 X132.509 Y98.343 E2.72719
G1 X132.531 Y98.286 E2.72822
G1 X132.486 Y98.403 E2.73090
G1 X132.442 Y98.520 E2.73413
G0 X132.463 Y98.457 F7200
G0 X132.410 Y98.686
G0 X132.385 Y98.800
G0 X132.371 Y98.914
G0 X132.349 Y99.257
G0 X132.343 Y99.371
G0 X132.370 Y99.829
G0 X132.390 Y99.943
G0 X132.439 Y100.171
G1 X132.429 Y100.158 E2.73464 F2763
G1 X132.472 Y100.276 E2.73791
G1 X132.522 Y100.388 E2.74080
G1 X132.531 Y100.403 E2.74121
G0 F3000 E1.74121
G0 X131.992 Y99.932 F7200
G0 X133.158 Y100.952
G0 X133.166 Y100.947
